;FLAVOR:Marlin
;TIME:8046
;Filament used: 6.79951m
;Layer height: 0.1
;Generated with Cura_SteamEngine 3.6.0
M140 S60
M105
M190 S60
M104 S215
M105
M109 S215
M82 ;absolute extrusion mode
G21 ;metric values
G90 ;absolute positioning
M82 ;set extruder to absolute mode
M107 ;start with the fan off
G28 X0 Y0 ;move X/Y to min endstops
G28 Z0 ;move Z to min endstops
G1 Z15.0 F80 ;move the platform down 15mm
G92 E0 ;zero the extruded length
G1 F200 E3 ;extrude 3mm of feed stock
G92 E0 ;zero the extruded length again
G1 F80
M117 Printing...
G5
G92 E0
G1 F2400 E-6
;LAYER_COUNT:280
;LAYER:0
M107
M204 S3000
M205 X0 Y0
G0 F1200 X73.725 Y92.895 Z0.2
;TYPE:SKIRT
G1 F2400 E0
G1 F1200 X74.416 Y92.387 E0.03994
G1 X75.151 Y91.946 E0.07985
G1 X75.925 Y91.575 E0.11981
G1 X76.729 Y91.278 E0.15973
G1 X77.558 Y91.057 E0.19967
G1 X78.404 Y90.914 E0.23963
G1 X79.511 Y90.847 E0.29127
G1 X130.484 Y90.844 E2.66478
G1 X131.341 Y90.884 E2.70473
G1 X132.191 Y91.003 E2.7447
G1 X133.025 Y91.202 E2.78462
G1 X133.837 Y91.477 E2.82454
G1 X134.621 Y91.826 E2.8645
G1 X135.368 Y92.247 E2.90443
G1 X136.073 Y92.735 E2.94436
G1 X136.729 Y93.288 E2.98431
G1 X137.331 Y93.898 E3.02421
G1 X137.874 Y94.563 E3.06419
G1 X138.439 Y95.42 E3.11199
G1 X138.657 Y95.795 E3.13219
G1 X139.053 Y96.556 E3.17213
G1 X139.376 Y97.35 E3.21205
G1 X139.624 Y98.171 E3.25198
G1 X139.795 Y99.012 E3.29194
G1 X139.886 Y99.865 E3.33189
G1 X139.898 Y100.722 E3.3718
G1 X139.83 Y101.577 E3.41174
G1 X139.682 Y102.422 E3.45168
G1 X139.457 Y103.25 E3.49163
G1 X139.155 Y104.052 E3.53154
G1 X138.671 Y105.019 E3.58189
G1 X113.188 Y149.159 E5.95517
G1 X112.725 Y149.881 E5.99511
G1 X112.196 Y150.557 E6.03508
G1 X111.608 Y151.18 E6.07497
G1 X110.963 Y151.746 E6.11492
G1 X110.269 Y152.25 E6.15486
G1 X109.531 Y152.687 E6.1948
G1 X108.755 Y153.053 E6.23475
G1 X107.949 Y153.345 E6.27467
G1 X107.119 Y153.561 E6.3146
G1 X106.272 Y153.699 E6.35456
G1 X105.305 Y153.759 E6.39968
G1 X104.871 Y153.763 E6.41989
G1 X104.014 Y153.731 E6.45982
G1 X103.163 Y153.619 E6.49979
G1 X102.327 Y153.428 E6.53972
G1 X101.512 Y153.161 E6.57965
G1 X100.726 Y152.819 E6.61957
G1 X99.975 Y152.405 E6.6595
G1 X99.265 Y151.922 E6.69948
G1 X98.604 Y151.376 E6.73941
G1 X97.996 Y150.771 E6.77935
G1 X97.448 Y150.112 E6.81925
G1 X96.819 Y149.164 E6.87223
G1 X71.331 Y105.024 E9.24562
G1 X70.937 Y104.262 E9.28557
G1 X70.616 Y103.466 E9.32553
G1 X70.37 Y102.645 E9.36544
G1 X70.202 Y101.804 E9.40538
G1 X70.113 Y100.95 E9.44536
G1 X70.104 Y100.093 E9.48527
G1 X70.175 Y99.238 E9.52521
G1 X70.325 Y98.394 E9.56513
G1 X70.553 Y97.567 E9.60508
G1 X70.857 Y96.765 E9.64501
G1 X71.302 Y95.872 E9.69147
G1 X71.516 Y95.496 E9.71162
G1 X71.975 Y94.771 E9.75157
G1 X72.499 Y94.092 E9.79151
G1 X73.084 Y93.465 E9.83144
G1 X73.725 Y92.895 E9.87138
G0 X74.157 Y93.266
G1 X74.834 Y92.783 E9.91011
G1 X75.553 Y92.367 E9.94879
G1 X76.309 Y92.022 E9.98748
G1 X77.095 Y91.752 E10.02618
G1 X77.904 Y91.558 E10.06492
G1 X78.727 Y91.443 E10.10361
G1 X79.511 Y91.407 E10.14016
G1 X130.484 Y91.404 E12.51367
G1 X131.315 Y91.444 E12.55241
G1 X132.137 Y91.563 E12.59109
G1 X132.944 Y91.761 E12.62978
G1 X133.729 Y92.036 E12.66851
G1 X134.483 Y92.385 E12.7072
G1 X135.201 Y92.804 E12.74591
G1 X135.875 Y93.291 E12.78463
G1 X136.498 Y93.84 E12.82329
G1 X137.067 Y94.447 E12.86204
G1 X137.574 Y95.105 E12.90071
G1 X137.955 Y95.702 E12.93369
G1 X138.173 Y96.077 E12.95389
G1 X138.555 Y96.815 E12.99259
G1 X138.865 Y97.586 E13.03128
G1 X139.1 Y98.383 E13.06997
G1 X139.256 Y99.199 E13.10866
G1 X139.334 Y100.027 E13.14738
G1 X139.332 Y100.858 E13.18608
G1 X139.25 Y101.685 E13.22477
G1 X139.089 Y102.5 E13.26346
G1 X138.85 Y103.296 E13.30216
G1 X138.536 Y104.066 E13.34088
G1 X138.186 Y104.739 E13.3762
G1 X112.703 Y148.879 E15.74948
G1 X112.253 Y149.578 E15.78819
G1 X111.738 Y150.23 E15.82688
G1 X111.163 Y150.83 E15.86557
G1 X110.533 Y151.372 E15.90427
G1 X109.854 Y151.851 E15.94296
G1 X109.131 Y152.263 E15.98171
G1 X108.373 Y152.603 E16.02039
G1 X107.586 Y152.869 E16.05908
G1 X106.776 Y153.058 E16.09781
G1 X105.952 Y153.168 E16.13652
G1 X105.3 Y153.199 E16.16691
G1 X104.866 Y153.203 E16.18712
G1 X104.035 Y153.17 E16.22585
G1 X103.212 Y153.058 E16.26452
G1 X102.403 Y152.868 E16.30322
G1 X101.616 Y152.6 E16.34193
G1 X100.858 Y152.258 E16.38065
G1 X100.137 Y151.845 E16.41934
G1 X99.459 Y151.365 E16.45802
G1 X98.83 Y150.822 E16.49672
G1 X98.256 Y150.22 E16.53545
G1 X97.742 Y149.567 E16.57414
G1 X97.304 Y148.883 E16.61196
G1 X71.816 Y104.743 E18.98536
G1 X71.435 Y104.005 E19.02403
G1 X71.128 Y103.232 E19.06276
G1 X70.895 Y102.434 E19.10147
G1 X70.741 Y101.618 E19.14014
G1 X70.666 Y100.79 E19.17885
G1 X70.67 Y99.959 E19.21755
G1 X70.755 Y99.132 E19.25626
G1 X70.919 Y98.317 E19.29497
G1 X71.16 Y97.522 E19.33365
G1 X71.476 Y96.753 E19.37236
G1 X71.789 Y96.149 E19.40404
G1 X72.003 Y95.773 E19.42418
G1 X72.448 Y95.072 E19.46285
G1 X72.959 Y94.416 E19.50157
G1 X73.531 Y93.812 E19.5403
G1 X74.157 Y93.266 E19.57898
G0 X74.588 Y93.641
G1 X75.249 Y93.183 E19.61643
G1 X75.952 Y92.794 E19.65384
G1 X76.69 Y92.476 E19.69126
G1 X77.456 Y92.233 E19.72868
G1 X78.243 Y92.067 E19.76613
G1 X79.042 Y91.981 E19.80355
G1 X79.512 Y91.967 E19.82544
G1 X130.485 Y91.964 E22.19896
G1 X131.287 Y92.004 E22.23635
G1 X132.082 Y92.123 E22.27378
G1 X132.861 Y92.321 E22.31121
G1 X133.617 Y92.596 E22.34867
G1 X134.341 Y92.944 E22.38607
G1 X135.027 Y93.362 E22.42348
G1 X135.669 Y93.846 E22.46092
G1 X136.259 Y94.392 E22.49835
G1 X136.792 Y94.993 E22.53575
G1 X137.47 Y95.983 E22.59163
G1 X137.688 Y96.358 E22.61182
G1 X138.057 Y97.072 E22.64925
G1 X138.353 Y97.819 E22.68666
G1 X138.574 Y98.592 E22.7241
G1 X138.716 Y99.383 E22.76152
G1 X138.78 Y100.185 E22.79898
G1 X138.763 Y100.988 E22.83638
G1 X138.667 Y101.786 E22.87381
G1 X138.491 Y102.571 E22.91127
G1 X138.239 Y103.334 E22.94869
G1 X137.912 Y104.068 E22.9861
G1 X137.701 Y104.459 E23.00679
G1 X112.218 Y148.599 E25.38007
G1 X111.782 Y149.274 E25.41749
G1 X111.281 Y149.903 E25.45493
G1 X110.72 Y150.478 E25.49234
G1 X110.105 Y150.995 E25.52975
G1 X109.441 Y151.449 E25.5672
G1 X108.736 Y151.834 E25.60461
G1 X107.995 Y152.147 E25.64206
G1 X107.228 Y152.386 E25.67947
G1 X106.44 Y152.546 E25.71691
G1 X105.294 Y152.639 E25.77045
G1 X104.86 Y152.643 E25.79066
G1 X104.057 Y152.61 E25.82808
G1 X103.262 Y152.498 E25.86547
G1 X102.481 Y152.307 E25.9029
G1 X101.723 Y152.04 E25.94033
G1 X100.995 Y151.699 E25.97776
G1 X100.305 Y151.287 E26.01518
G1 X99.659 Y150.808 E26.05263
G1 X99.064 Y150.268 E26.09004
G1 X98.526 Y149.671 E26.12746
G1 X98.049 Y149.024 E26.16489
G1 X97.789 Y148.603 E26.18793
G1 X72.301 Y104.463 E28.56133
G1 X71.934 Y103.748 E28.59875
G1 X71.64 Y103 E28.63617
G1 X71.422 Y102.227 E28.67357
G1 X71.282 Y101.435 E28.71102
G1 X71.221 Y100.634 E28.74843
G1 X71.24 Y99.83 E28.78588
G1 X71.339 Y99.033 E28.82327
G1 X71.516 Y98.249 E28.8607
G1 X71.771 Y97.486 E28.89816
G1 X72.276 Y96.426 E28.95283
G1 X72.49 Y96.05 E28.97298
G1 X72.922 Y95.372 E29.01041
G1 X73.419 Y94.741 E29.04781
G1 X73.976 Y94.162 E29.08522
G1 X74.588 Y93.641 E29.12265
G0 X75.017 Y94.019
G1 X75.661 Y93.588 E29.15873
G1 X76.347 Y93.226 E29.19485
G1 X77.066 Y92.936 E29.23095
G1 X77.811 Y92.722 E29.26704
G1 X78.575 Y92.586 E29.30318
G1 X79.512 Y92.527 E29.3469
G1 X130.485 Y92.524 E31.72041
G1 X131.259 Y92.564 E31.7565
G1 X132.025 Y92.683 E31.7926
G1 X132.775 Y92.881 E31.82872
G1 X133.5 Y93.155 E31.86481
G1 X134.194 Y93.502 E31.90094
G1 X134.847 Y93.919 E31.93701
G1 X135.455 Y94.4 E31.97311
G1 X136.01 Y94.942 E32.00923
G1 X136.506 Y95.538 E32.04534
G1 X136.986 Y96.265 E32.08591
G1 X137.204 Y96.64 E32.1061
G1 X137.559 Y97.329 E32.14219
G1 X137.841 Y98.052 E32.17833
G1 X138.046 Y98.799 E32.2144
G1 X138.174 Y99.564 E32.25052
G1 X138.223 Y100.338 E32.28663
G1 X138.191 Y101.112 E32.3227
G1 X138.08 Y101.88 E32.35883
G1 X137.89 Y102.632 E32.39495
G1 X137.624 Y103.36 E32.43104
G1 X137.216 Y104.179 E32.47365
G1 X111.733 Y148.319 E34.84692
G1 X111.311 Y148.969 E34.88301
G1 X110.824 Y149.573 E34.91914
G1 X110.278 Y150.124 E34.95526
G1 X109.678 Y150.615 E34.99136
G1 X109.031 Y151.042 E35.02746
G1 X108.343 Y151.4 E35.06357
G1 X107.622 Y151.685 E35.09967
G1 X106.876 Y151.894 E35.13574
G1 X106.112 Y152.026 E35.17185
G1 X105.289 Y152.079 E35.21025
G1 X104.855 Y152.083 E35.23046
G1 X104.081 Y152.05 E35.26653
G1 X103.313 Y151.937 E35.30268
G1 X102.562 Y151.747 E35.33875
G1 X101.834 Y151.479 E35.37487
G1 X101.138 Y151.139 E35.41094
G1 X100.48 Y150.728 E35.44707
G1 X99.868 Y150.252 E35.48317
G1 X99.308 Y149.715 E35.5193
G1 X98.807 Y149.124 E35.55537
G1 X98.274 Y148.323 E35.60017
G1 X72.786 Y104.183 E37.97357
G1 X72.433 Y103.493 E38.00966
G1 X72.154 Y102.77 E38.04574
G1 X71.95 Y102.022 E38.08184
G1 X71.824 Y101.256 E38.11799
G1 X71.778 Y100.482 E38.1541
G1 X71.812 Y99.708 E38.19017
G1 X71.926 Y98.941 E38.22628
G1 X72.117 Y98.189 E38.26241
G1 X72.386 Y97.462 E38.2985
G1 X72.762 Y96.703 E38.33794
G1 X72.976 Y96.327 E38.35809
G1 X73.394 Y95.674 E38.39419
G1 X73.877 Y95.067 E38.43031
G1 X74.42 Y94.514 E38.4664
G1 X75.017 Y94.019 E38.50251
G0 X74.862 Y94.868
G1 X75.443 Y94.401 E38.53722
G1 X76.07 Y93.997 E38.57195
G1 X76.738 Y93.664 E38.60671
G1 X77.437 Y93.404 E38.64144
G1 X78.159 Y93.22 E38.67613
G1 X78.898 Y93.114 E38.71089
G1 X79.512 Y93.087 E38.73951
G1 X130.485 Y93.084 E41.11303
G1 X131.229 Y93.124 E41.14772
G1 X131.966 Y93.243 E41.18248
G1 X132.685 Y93.441 E41.21721
G1 X133.379 Y93.714 E41.25194
G1 X134.04 Y94.06 E41.28668
G1 X134.66 Y94.475 E41.32142
G1 X135.232 Y94.954 E41.35616
G1 X135.749 Y95.491 E41.39087
G1 X136.206 Y96.081 E41.42562
G1 X136.502 Y96.546 E41.45128
G1 X136.72 Y96.921 E41.47148
G1 X137.06 Y97.585 E41.50622
G1 X137.327 Y98.282 E41.54097
G1 X137.517 Y99.003 E41.57569
G1 X137.63 Y99.74 E41.61041
G1 X137.663 Y100.485 E41.64513
G1 X137.616 Y101.23 E41.67989
G1 X137.489 Y101.965 E41.71463
G1 X137.285 Y102.682 E41.74934
G1 X137.005 Y103.374 E41.7841
G1 X136.731 Y103.899 E41.81167
G1 X111.248 Y148.039 E44.18495
G1 X110.841 Y148.664 E44.21968
G1 X110.369 Y149.242 E44.25443
G1 X109.838 Y149.766 E44.28917
G1 X109.254 Y150.23 E44.3239
G1 X108.624 Y150.63 E44.35865
G1 X107.955 Y150.959 E44.39336
G1 X107.255 Y151.215 E44.42807
G1 X106.531 Y151.395 E44.46281
G1 X105.791 Y151.495 E44.49758
G1 X105.284 Y151.519 E44.52121
G1 X104.85 Y151.523 E44.54142
G1 X104.105 Y151.49 E44.57614
G1 X103.368 Y151.377 E44.61086
G1 X102.647 Y151.186 E44.64559
G1 X101.95 Y150.919 E44.68035
G1 X101.286 Y150.579 E44.71509
G1 X100.662 Y150.17 E44.74983
G1 X100.086 Y149.696 E44.78456
G1 X99.564 Y149.164 E44.81927
G1 X99.101 Y148.579 E44.85401
G1 X98.759 Y148.043 E44.88361
G1 X73.271 Y103.903 E47.25701
G1 X72.933 Y103.238 E47.29174
G1 X72.668 Y102.541 E47.32646
G1 X72.48 Y101.819 E47.3612
G1 X72.369 Y101.082 E47.39591
G1 X72.339 Y100.336 E47.43067
G1 X72.388 Y99.592 E47.46539
G1 X72.516 Y98.857 E47.50013
G1 X72.723 Y98.14 E47.53488
G1 X73.005 Y97.45 E47.56959
G1 X73.249 Y96.98 E47.59425
G1 X73.463 Y96.604 E47.6144
G1 X73.866 Y95.977 E47.6491
G1 X74.334 Y95.396 E47.68384
G1 X74.862 Y94.868 E47.71861
G0 X75.302 Y95.227
G1 X75.866 Y94.787 E47.75192
G1 X76.476 Y94.413 E47.78524
G1 X77.123 Y94.109 E47.81852
G1 X77.801 Y93.88 E47.85185
G1 X78.5 Y93.728 E47.88516
G1 X79.512 Y93.647 E47.93243
G1 X130.485 Y93.644 E50.30595
G1 X131.199 Y93.684 E50.33924
G1 X131.904 Y93.803 E50.37254
G1 X132.592 Y94.001 E50.40587
G1 X133.253 Y94.273 E50.43916
G1 X133.879 Y94.618 E50.47244
G1 X134.464 Y95.031 E50.50578
G1 X134.998 Y95.506 E50.53906
G1 X135.476 Y96.038 E50.57236
G1 X136.018 Y96.827 E50.61694
G1 X136.236 Y97.202 E50.63714
G1 X136.56 Y97.84 E50.67045
G1 X136.812 Y98.51 E50.70379
G1 X136.986 Y99.203 E50.73706
G1 X137.083 Y99.912 E50.77038
G1 X137.1 Y100.627 E50.80368
G1 X137.036 Y101.339 E50.83697
G1 X136.894 Y102.04 E50.87027
G1 X136.675 Y102.721 E50.90358
G1 X136.246 Y103.619 E50.94992
G1 X110.763 Y147.759 E53.3232
G1 X110.371 Y148.357 E53.3565
G1 X109.915 Y148.908 E53.3898
G1 X109.4 Y149.405 E53.42313
G1 X108.833 Y149.841 E53.45643
G1 X108.221 Y150.212 E53.48976
G1 X107.572 Y150.511 E53.52303
G1 X106.893 Y150.736 E53.55634
G1 X106.193 Y150.885 E53.58966
G1 X105.279 Y150.959 E53.63236
G1 X104.845 Y150.963 E53.65257
G1 X104.131 Y150.929 E53.68585
G1 X103.424 Y150.816 E53.71919
G1 X102.735 Y150.625 E53.75249
G1 X102.071 Y150.359 E53.78579
G1 X101.441 Y150.02 E53.81911
G1 X100.854 Y149.612 E53.85239
G1 X100.315 Y149.142 E53.88569
G1 X99.832 Y148.614 E53.91901
G1 X99.244 Y147.763 E53.96718
G1 X73.756 Y103.623 E56.34057
G1 X73.433 Y102.985 E56.37387
G1 X73.184 Y102.314 E56.4072
G1 X73.011 Y101.62 E56.4405
G1 X72.917 Y100.911 E56.4738
G1 X72.902 Y100.196 E56.50711
G1 X72.967 Y99.484 E56.5404
G1 X73.112 Y98.783 E56.57373
G1 X73.333 Y98.103 E56.60702
G1 X73.736 Y97.257 E56.65066
G1 X73.95 Y96.881 E56.6708
G1 X74.338 Y96.28 E56.70411
G1 X74.79 Y95.727 E56.73737
G1 X75.302 Y95.227 E56.77069
G0 X75.74 Y95.589
G1 X76.286 Y95.179 E56.80249
G1 X76.877 Y94.835 E56.83433
G1 X77.504 Y94.563 E56.86615
G1 X78.158 Y94.366 E56.89796
G1 X78.831 Y94.247 E56.92978
G1 X79.512 Y94.207 E56.96155
G1 X130.485 Y94.204 E59.33506
G1 X131.167 Y94.244 E59.36688
G1 X131.839 Y94.363 E59.39865
G1 X132.494 Y94.56 E59.4305
G1 X133.12 Y94.832 E59.46228
G1 X133.711 Y95.176 E59.49413
G1 X134.257 Y95.586 E59.52592
G1 X134.752 Y96.057 E59.55774
G1 X135.189 Y96.583 E59.58958
G1 X135.534 Y97.109 E59.61887
G1 X135.752 Y97.484 E59.63907
G1 X136.06 Y98.094 E59.67089
G1 X136.295 Y98.735 E59.70268
G1 X136.453 Y99.4 E59.7345
G1 X136.533 Y100.078 E59.76629
G1 X136.533 Y100.762 E59.79814
G1 X136.453 Y101.44 E59.82993
G1 X136.294 Y102.105 E59.86177
G1 X136.059 Y102.746 E59.89356
G1 X135.761 Y103.339 E59.92447
G1 X110.278 Y147.479 E62.29774
G1 X109.902 Y148.05 E62.32958
G1 X109.462 Y148.573 E62.3614
G1 X108.965 Y149.041 E62.39319
G1 X108.416 Y149.447 E62.42498
G1 X107.823 Y149.787 E62.45681
G1 X107.194 Y150.055 E62.48865
G1 X106.539 Y150.248 E62.52045
G1 X105.865 Y150.363 E62.55228
G1 X105.274 Y150.399 E62.57985
G1 X104.84 Y150.403 E62.60006
G1 X104.157 Y150.369 E62.63191
G1 X103.484 Y150.256 E62.66368
G1 X102.828 Y150.065 E62.6955
G1 X102.198 Y149.798 E62.72736
G1 X101.605 Y149.46 E62.75914
G1 X101.055 Y149.055 E62.79095
G1 X100.555 Y148.589 E62.82277
G1 X100.114 Y148.067 E62.85459
G1 X99.729 Y147.483 E62.88716
G1 X74.241 Y103.343 E65.26056
G1 X73.934 Y102.733 E65.29236
G1 X73.701 Y102.09 E65.3242
G1 X73.545 Y101.425 E65.35601
G1 X73.467 Y100.747 E65.38779
G1 X73.469 Y100.063 E65.41964
G1 X73.551 Y99.385 E65.45144
G1 X73.712 Y98.721 E65.48325
G1 X73.949 Y98.08 E65.51507
G1 X74.222 Y97.534 E65.5435
G1 X74.436 Y97.158 E65.56364
G1 X74.809 Y96.585 E65.59548
G1 X75.245 Y96.06 E65.62726
G1 X75.74 Y95.589 E65.65907
G0 X76.175 Y95.955
G1 X76.703 Y95.576 E65.68934
G1 X77.273 Y95.265 E65.71957
G1 X77.878 Y95.026 E65.74986
G1 X78.507 Y94.864 E65.78011
G1 X79.151 Y94.779 E65.81036
G1 X79.512 Y94.767 E65.82717
G1 X130.485 Y94.764 E68.20069
G1 X131.133 Y94.804 E68.23092
G1 X131.772 Y94.923 E68.26119
G1 X132.391 Y95.12 E68.29144
G1 X132.981 Y95.391 E68.32167
G1 X133.533 Y95.733 E68.3519
G1 X134.04 Y96.14 E68.38218
G1 X134.492 Y96.606 E68.41241
G1 X135.05 Y97.39 E68.45722
G1 X135.268 Y97.765 E68.47741
G1 X135.559 Y98.346 E68.50767
G1 X135.777 Y98.958 E68.53792
G1 X135.918 Y99.592 E68.56817
G1 X135.98 Y100.239 E68.59843
G1 X135.962 Y100.888 E68.62866
G1 X135.865 Y101.53 E68.6589
G1 X135.689 Y102.156 E68.68918
G1 X135.438 Y102.755 E68.71942
G1 X135.276 Y103.059 E68.73546
G1 X109.793 Y147.199 E71.10873
G1 X109.434 Y147.74 E71.13897
G1 X109.011 Y148.234 E71.16925
G1 X108.531 Y148.672 E71.19951
G1 X108.001 Y149.047 E71.22974
G1 X107.429 Y149.355 E71.25999
G1 X106.823 Y149.59 E71.29026
G1 X106.194 Y149.748 E71.32045
G1 X105.269 Y149.839 E71.36373
G1 X104.835 Y149.843 E71.38394
G1 X104.186 Y149.809 E71.41421
G1 X103.546 Y149.695 E71.44448
G1 X102.925 Y149.504 E71.47473
G1 X102.333 Y149.238 E71.50495
G1 X101.777 Y148.902 E71.5352
G1 X101.267 Y148.499 E71.56547
G1 X100.81 Y148.038 E71.59569
G1 X100.414 Y147.523 E71.62594
G1 X100.214 Y147.203 E71.64352
G1 X74.726 Y103.063 E74.01691
G1 X74.436 Y102.482 E74.04715
