;FLAVOR:Marlin
;TIME:1686
;Filament used: 0.641945m
;Layer height: 0.1
;Generated with Cura_SteamEngine 3.5.1
M140 S60
M105
M190 S60
M104 S215
M105
M109 S215
M82 ;absolute extrusion mode
G21 ;metric values
G90 ;absolute positioning
M82 ;set extruder to absolute mode
M107 ;start with the fan off
G28 X0 Y0 ;move X/Y to min endstops
G28 Z0 ;move Z to min endstops
G1 Z15.0 F60 ;move the platform down 15mm
G92 E0 ;zero the extruded length
G1 F200 E3 ;extrude 3mm of feed stock
G92 E0 ;zero the extruded length again
G1 F60
M117 Printing...
G5
G92 E0
G1 F2400 E-3
;LAYER_COUNT:269
;LAYER:-8
M107
M204 S3000
M205 X10 Y10
G0 F3600 X95.64 Y143.254 Z0.24
M205 X8 Y8
;TYPE:SUPPORT-INTERFACE
G1 F2400 E0
G1 F1350 X95.829 Y143.128 E0.01813
G1 X96.397 Y142.786 E0.07106
G1 X96.548 Y142.704 E0.08477
G1 X97.137 Y142.419 E0.137
G1 X97.358 Y142.322 E0.15627
G1 X97.945 Y142.099 E0.20639
G1 X98.154 Y142.03 E0.22396
G1 X98.744 Y141.864 E0.27289
G1 X98.995 Y141.806 E0.29345
G1 X99.613 Y141.69 E0.34364
G1 X99.815 Y141.662 E0.35992
G1 X100.509 Y141.596 E0.41557
G1 X101.042 Y141.578 E0.45814
G1 X108.873 Y141.577 E1.08325
G1 X109.701 Y141.612 E1.1494
G1 X109.916 Y141.63 E1.16662
G1 X110.551 Y141.715 E1.21776
G1 X110.751 Y141.752 E1.234
G1 X111.387 Y141.897 E1.28607
G1 X111.592 Y141.953 E1.30303
G1 X112.222 Y142.157 E1.35589
G1 X112.403 Y142.224 E1.3713
G1 X113.001 Y142.479 E1.42319
G1 X113.195 Y142.572 E1.44037
G1 X113.772 Y142.881 E1.49261
G1 X113.948 Y142.986 E1.50897
G1 X114.468 Y143.328 E1.55865
G1 X114.675 Y143.477 E1.57901
G1 X115.171 Y143.871 E1.62958
G1 X115.313 Y143.994 E1.64457
G1 X115.791 Y144.448 E1.6972
G1 X115.937 Y144.6 E1.71402
G1 X116.356 Y145.077 E1.7647
G1 X116.508 Y145.266 E1.78406
G1 X116.875 Y145.768 E1.8337
G1 X117 Y145.955 E1.85166
G1 X117.331 Y146.503 E1.90276
G1 X117.428 Y146.682 E1.91901
G1 X117.721 Y147.285 E1.97253
G1 X117.793 Y147.451 E1.98697
G1 X118.038 Y148.092 E2.04175
G1 X118.317 Y148.702 E2.09529
G1 X118.674 Y149.28 E2.14952
G1 X119.011 Y149.707 E2.19294
G1 X119.36 Y150.105 E2.2352
G1 X119.509 Y150.29 E2.25416
G1 X119.874 Y150.79 E2.30358
G1 X120.004 Y150.985 E2.32228
G1 X120.342 Y151.547 E2.37463
G1 X120.424 Y151.698 E2.38835
G1 X120.707 Y152.281 E2.44008
G1 X120.806 Y152.508 E2.45985
G1 X121.026 Y153.086 E2.50922
G1 X121.092 Y153.285 E2.52595
G1 X121.264 Y153.894 E2.57647
G1 X121.322 Y154.145 E2.59703
G1 X121.439 Y154.77 E2.64779
G1 X121.465 Y154.957 E2.66286
G1 X121.539 Y155.781 E2.7289
G1 X121.55 Y156.264 E2.76746
G1 X121.537 Y157.531 E2.86861
G1 X121.445 Y158.758 E2.96682
G1 X121.39 Y159.147 E2.99818
G1 X121.228 Y160.019 E3.06898
G1 X121.121 Y160.438 E3.1035
G1 X121.019 Y160.798 E3.13337
G1 X120.79 Y161.498 E3.19216
G1 X120.59 Y162.009 E3.23596
G1 X120.407 Y162.43 E3.27261
G1 X120.08 Y163.099 E3.33205
G1 X119.88 Y163.458 E3.36485
G1 X119.621 Y163.89 E3.40506
G1 X119.14 Y164.607 E3.47398
G1 X118.863 Y164.968 E3.5103
G1 X118.629 Y165.257 E3.53998
G1 X117.767 Y166.185 E3.64109
G1 X117.448 Y166.495 E3.6766
G1 X116.831 Y167.026 E3.74158
G1 X116.33 Y167.404 E3.79167
G1 X115.988 Y167.642 E3.82493
G1 X115.37 Y168.037 E3.88348
G1 X115.231 Y168.119 E3.89636
G1 X114.63 Y168.44 E3.95075
G1 X113.877 Y168.791 E4.01707
G1 X113.299 Y169.018 E4.06664
G1 X112.92 Y169.149 E4.09865
G1 X112.076 Y169.402 E4.16898
G1 X111.68 Y169.493 E4.20142
G1 X111.251 Y169.58 E4.23636
G1 X110.388 Y169.714 E4.30607
G1 X109.767 Y169.765 E4.35581
G1 X109.439 Y169.784 E4.38203
G1 X108.919 Y169.798 E4.42356
G1 X100.942 Y169.792 E5.06032
G1 X100.749 Y169.785 E5.07573
G1 X99.637 Y169.71 E5.1647
G1 X99.219 Y169.659 E5.19831
G1 X98.371 Y169.507 E5.26708
G1 X97.893 Y169.392 E5.30633
G1 X97.534 Y169.293 E5.33606
G1 X96.599 Y168.986 E5.41461
G1 X96.229 Y168.836 E5.44648
G1 X95.82 Y168.657 E5.48212
G1 X94.992 Y168.245 E5.55594
G1 X94.613 Y168.025 E5.59092
G1 X94.302 Y167.833 E5.6201
G1 X93.562 Y167.332 E5.69143
G1 X92.966 Y166.856 E5.75232
G1 X92.357 Y166.314 E5.8174
G1 X91.978 Y165.936 E5.86013
G1 X91.674 Y165.605 E5.896
G1 X91.193 Y165.042 E5.95511
G1 X90.85 Y164.586 E6.00066
G1 X90.618 Y164.254 E6.03299
G1 X90.219 Y163.63 E6.09211
G1 X89.933 Y163.118 E6.13893
G1 X89.796 Y162.853 E6.16274
G1 X89.454 Y162.116 E6.2276
G1 X89.232 Y161.549 E6.2762
G1 X89.093 Y161.146 E6.31023
G1 X88.848 Y160.326 E6.37855
G1 X88.757 Y159.93 E6.41098
G1 X88.67 Y159.499 E6.44608
G1 X88.535 Y158.63 E6.51628
G1 X88.472 Y157.854 E6.57842
G1 X88.451 Y157.208 E6.63002
G1 X88.45 Y153.476 E6.92792
G1 X88.485 Y152.634 E6.99519
G1 X88.5 Y152.455 E7.00953
G1 X88.59 Y151.798 E7.06247
G1 X88.628 Y151.586 E7.07966
G1 X88.769 Y150.966 E7.13041
G1 X88.825 Y150.763 E7.14722
G1 X89.03 Y150.128 E7.20049
G1 X89.095 Y149.951 E7.21554
G1 X89.35 Y149.352 E7.26751
G1 X89.44 Y149.166 E7.284
G1 X89.751 Y148.584 E7.33667
G1 X89.86 Y148.401 E7.35368
G1 X90.202 Y147.881 E7.40336
G1 X90.351 Y147.674 E7.42372
G1 X90.735 Y147.19 E7.47304
G1 X90.868 Y147.036 E7.48928
G1 X91.322 Y146.558 E7.5419
G1 X91.474 Y146.412 E7.55873
G1 X91.951 Y145.993 E7.60941
G1 X92.14 Y145.841 E7.62877
G1 X92.64 Y145.476 E7.67818
G1 X92.829 Y145.35 E7.69631
G1 X93.491 Y144.951 E7.75801
G1 X94.04 Y144.571 E7.81131
G1 X94.951 Y143.771 E7.90809
G1 X95.14 Y143.619 E7.92745
G1 X95.64 Y143.254 E7.97687
M205 X10 Y10
G0 F3600 X96 Y143.025
M205 X8 Y8
G1 F1350 X96 Y168.735 E10.02915
M205 X10 Y10
G0 F3600 X97.6 Y169.311
M205 X8 Y8
G1 F1350 X97.6 Y142.23 E12.19087
M205 X10 Y10
G0 F3600 X99.2 Y141.767
M205 X8 Y8
G1 F1350 X99.2 Y169.655 E14.41701
M205 X10 Y10
G0 F3600 X100.8 Y169.786
M205 X8 Y8
G1 F1350 X100.8 Y141.586 E16.66806
M205 X10 Y10
G0 F3600 X102.4 Y141.577
M205 X8 Y8
G1 F1350 X102.4 Y169.793 E18.92038
M205 X10 Y10
G0 F3600 X104 Y169.794
M205 X8 Y8
G1 F1350 X104 Y141.577 E21.17278
M205 X10 Y10
G0 F3600 X105.6 Y141.577
M205 X8 Y8
G1 F1350 X105.6 Y169.795 E23.42527
M205 X10 Y10
G0 F3600 X107.2 Y169.796
M205 X8 Y8
G1 F1350 X107.2 Y141.577 E25.67783
M205 X10 Y10
G0 F3600 X108.8 Y141.577
M205 X8 Y8
G1 F1350 X108.8 Y169.797 E27.93047
M205 X10 Y10
G0 F3600 X110.4 Y169.713
M205 X8 Y8
G1 F1350 X110.4 Y141.695 E30.16699
M205 X10 Y10
G0 F3600 X112 Y142.086
M205 X8 Y8
G1 F1350 X112 Y169.42 E32.34891
M205 X10 Y10
G0 F3600 X113.6 Y168.9
M205 X8 Y8
G1 F1350 X113.6 Y142.789 E34.4332
M205 X10 Y10
G0 F3600 X115.2 Y143.897
M205 X8 Y8
G1 F1350 X115.2 Y168.136 E36.36806
M205 X10 Y10
G0 F3600 X116.8 Y167.05
M205 X8 Y8
G1 F1350 X116.8 Y145.666 E38.07503
M205 X10 Y10
G0 F3600 X118.4 Y148.837
M205 X8 Y8
G1 F1350 X118.4 Y165.504 E39.40546
M205 X10 Y10
G0 F3600 X120 Y163.243
M205 X8 Y8
G1 F1350 X120 Y150.979 E40.38442
M205 X10 Y10
G0 F3600 X94.4 Y144.254
M205 X8 Y8
G1 F1350 X94.4 Y167.893 E42.27139
M205 X10 Y10
G0 F3600 X92.8 Y166.708
M205 X8 Y8
G1 F1350 X92.8 Y145.369 E43.97476
M205 X10 Y10
G0 F3600 X91.2 Y146.686
M205 X8 Y8
G1 F1350 X91.2 Y165.05 E45.44066
M205 X10 Y10
G0 F3600 X89.6 Y162.43
M205 X8 Y8
G1 F1350 X89.6 Y148.866 E46.52339
M205 X10 Y10
G0 F3600 X112.615 Y142.314
;TIME_ELAPSED:36.223267
;LAYER:-7
M140 S60
G0 X112.615 Y142.314 Z0.39
M205 X8 Y8
;TYPE:SUPPORT
G1 F1350 X112.403 Y142.223 E46.5349
G1 X112.222 Y142.156 E46.54453
G1 X111.592 Y141.952 E46.57757
G1 X111.386 Y141.895 E46.58823
G1 X110.75 Y141.751 E46.62077
G1 X110.613 Y141.726 E46.62771
G1 X120.203 Y151.316 E47.30434
G1 X120.341 Y151.546 E47.31772
G1 X120.423 Y151.697 E47.3263
G1 X120.706 Y152.28 E47.35863
G1 X120.806 Y152.507 E47.371
G1 X121.026 Y153.085 E47.40186
G1 X121.092 Y153.283 E47.41227
G1 X121.224 Y153.751 E47.43653
G1 X109.057 Y141.584 E48.29498
G1 X108.872 Y141.576 E48.30422
G1 X107.635 Y141.576 E48.36593
G1 X121.509 Y155.45 E49.34482
G1 X121.538 Y155.779 E49.36129
G1 X121.55 Y156.263 E49.38545
G1 X121.543 Y156.899 E49.41718
G1 X106.221 Y141.576 E50.49826
G1 X104.808 Y141.577 E50.56876
G1 X121.483 Y158.252 E51.74527
G1 X121.444 Y158.757 E51.77054
G1 X121.389 Y159.146 E51.79014
G1 X121.323 Y159.507 E51.80845
G1 X103.393 Y141.577 E53.07351
G1 X101.979 Y141.577 E53.14405
G1 X121.058 Y160.656 E54.49018
G1 X121.018 Y160.797 E54.49749
G1 X120.79 Y161.496 E54.53417
G1 X120.704 Y161.716 E54.54596
G1 X100.58 Y141.593 E55.96578
G1 X100.509 Y141.595 E55.96932
G1 X99.815 Y141.661 E56.0041
G1 X99.612 Y141.688 E56.01432
G1 X99.318 Y141.744 E56.02925
G1 X120.274 Y162.701 E57.50784
G1 X120.079 Y163.098 E57.52991
G1 X119.88 Y163.457 E57.55039
G1 X119.781 Y163.622 E57.55999
G1 X98.181 Y142.022 E59.08399
G1 X98.153 Y142.029 E59.08543
G1 X97.944 Y142.098 E59.09641
G1 X97.357 Y142.321 E59.12773
G1 X97.155 Y142.41 E59.13875
G1 X119.225 Y164.48 E60.6959
G1 X119.139 Y164.606 E60.70352
G1 X118.862 Y164.967 E60.72622
G1 X118.629 Y165.255 E60.7447
G1 X118.609 Y165.278 E60.74622
G1 X96.221 Y142.89 E62.32581
G1 X95.829 Y143.127 E62.34867
G1 X95.639 Y143.253 E62.36004
G1 X95.368 Y143.452 E62.37682
G1 X117.928 Y166.011 E63.96851
G1 X117.767 Y166.184 E63.9803
G1 X117.448 Y166.494 E64.00249
G1 X117.205 Y166.703 E64.01848
G1 X94.59 Y144.087 E65.61413
G1 X94.04 Y144.57 E65.65065
G1 X93.814 Y144.726 E65.66435
G1 X116.421 Y167.333 E67.25939
G1 X116.33 Y167.403 E67.26512
G1 X115.988 Y167.64 E67.28588
G1 X115.577 Y167.903 E67.31022
G1 X92.949 Y145.275 E68.90675
G1 X92.828 Y145.348 E68.9138
G1 X92.64 Y145.475 E68.92512
G1 X92.139 Y145.84 E68.95605
G1 X92.117 Y145.857 E68.95743
G1 X114.674 Y168.414 E70.54895
G1 X114.629 Y168.439 E70.55152
G1 X113.876 Y168.79 E70.59297
G1 X113.703 Y168.857 E70.60222
G1 X91.363 Y146.518 E72.1784
G1 X91.322 Y146.557 E72.18122
G1 X90.868 Y147.035 E72.21411
G1 X90.735 Y147.189 E72.22426
G1 X90.684 Y147.252 E72.2283
G1 X112.657 Y169.226 E73.77865
G1 X112.076 Y169.401 E73.80893
G1 X111.68 Y169.492 E73.8292
G1 X111.537 Y169.52 E73.83647
G1 X90.081 Y148.063 E75.35034
G1 X89.859 Y148.399 E75.37043
G1 X89.75 Y148.583 E75.3811
G1 X89.553 Y148.95 E75.40188
G1 X110.321 Y169.718 E76.86718
G1 X109.767 Y169.763 E76.89491
G1 X109.438 Y169.783 E76.91135
G1 X108.983 Y169.794 E76.93406
G1 X89.108 Y149.919 E78.33634
G1 X89.095 Y149.95 E78.33802
G1 X89.03 Y150.127 E78.34743
G1 X88.825 Y150.762 E78.38072
G1 X88.769 Y150.965 E78.39123
G1 X88.763 Y150.989 E78.39246
G1 X107.57 Y169.795 E79.71936
G1 X106.155 Y169.794 E79.78995
G1 X88.536 Y152.176 E81.03303
G1 X88.499 Y152.454 E81.04703
G1 X88.484 Y152.633 E81.05599
G1 X88.449 Y153.475 E81.09803
G1 X88.449 Y153.503 E81.09943
G1 X104.739 Y169.793 E82.24878
G1 X103.324 Y169.792 E82.31937
G1 X88.449 Y154.917 E83.36888
G1 X88.45 Y156.332 E83.43948
G1 X101.908 Y169.791 E84.38905
G1 X100.941 Y169.791 E84.43729
G1 X100.749 Y169.784 E84.44688
G1 X100.468 Y169.765 E84.46093
G1 X88.468 Y157.765 E85.30759
G1 X88.471 Y157.853 E85.31198
G1 X88.535 Y158.629 E85.35083
G1 X88.647 Y159.358 E85.38763
G1 X98.888 Y169.598 E86.11015
G1 X98.371 Y169.506 E86.13635
G1 X97.893 Y169.391 E86.16088
G1 X97.534 Y169.292 E86.17946
G1 X96.988 Y169.113 E86.20812
G1 X89.13 Y161.255 E86.76255
G1 X89.231 Y161.547 E86.77796
G1 X89.453 Y162.114 E86.80834
G1 X89.795 Y162.852 E86.84892
G1 X89.933 Y163.117 E86.86383
G1 X90.219 Y163.629 E86.89309
G1 X90.446 Y163.985 E86.91415
G1 X94.275 Y167.814 E87.18431
G1 X93.561 Y167.331 E87.22731
G1 X92.965 Y166.855 E87.26537
G1 X92.357 Y166.313 E87.306
G1 X91.977 Y165.935 E87.33274
G1 X91.673 Y165.604 E87.35517
G1 X91.192 Y165.041 E87.39211
G1 X90.849 Y164.585 E87.42058
G1 X90.617 Y164.253 E87.44078
M205 X10 Y10
G0 F3600 X112.615 Y142.314
M205 X8 Y8
G1 F1350 X113 Y142.478 E87.46166
G1 X113.195 Y142.571 E87.47244
G1 X113.772 Y142.88 E87.50509
G1 X113.948 Y142.984 E87.51529
G1 X114.467 Y143.327 E87.54633
G1 X114.675 Y143.476 E87.55909
G1 X115.171 Y143.87 E87.5907
G1 X115.312 Y143.993 E87.60003
G1 X115.79 Y144.447 E87.63292
G1 X115.937 Y144.599 E87.64347
G1 X116.356 Y145.076 E87.67515
G1 X116.508 Y145.265 E87.68725
G1 X116.874 Y145.767 E87.71824
G1 X117 Y145.954 E87.72949
G1 X117.33 Y146.501 E87.76136
G1 X117.427 Y146.68 E87.77152
G1 X117.721 Y147.283 E87.80499
G1 X117.792 Y147.45 E87.81404
M205 X10 Y10
G0 F3600 X117.818 Y147.516
M205 X8 Y8
G1 F1350 X112.615 Y142.314 E88.18111
M205 X10 Y10
G0 F3600 X110.803 Y141.559
;TIME_ELAPSED:74.222884
;LAYER:-6
G0 X110.803 Y141.559 Z0.49
M205 X8 Y8
;TYPE:SUPPORT-INTERFACE
G1 F1800 X110.581 Y141.518 E88.18486
G1 X109.925 Y141.429 E88.19587
G1 X109.718 Y141.412 E88.19932
G1 X108.876 Y141.377 E88.21334
G1 X101.035 Y141.378 E88.34374
G1 X100.486 Y141.398 E88.35287
G1 X99.793 Y141.463 E88.36445
G1 X99.582 Y141.493 E88.36799
G1 X99.011 Y141.6 E88.37765
G1 X110.984 Y141.6 E88.57676
G1 X111.436 Y141.703 E88.58447
G1 X111.654 Y141.763 E88.58823
G1 X112.281 Y141.965 E88.59919
G1 X112.375 Y142 E88.60086
G1 X97.642 Y142 E88.84587
G1 X97.268 Y142.142 E88.85252
G1 X97.057 Y142.234 E88.85635
G1 X96.716 Y142.4 E88.86265
G1 X113.299 Y142.4 E89.13843
G1 X113.867 Y142.705 E89.14915
G1 X114.027 Y142.8 E89.15225
G1 X95.984 Y142.8 E89.4523
G1 X95.723 Y142.957 E89.45737
G1 X95.535 Y143.083 E89.46113
G1 X95.375 Y143.2 E89.46443
G1 X114.633 Y143.2 E89.78469
G1 X114.784 Y143.309 E89.78779
G1 X115.151 Y143.6 E89.79558
G1 X94.843 Y143.6 E90.1333
G1 X94.824 Y143.615 E90.1337
G1 X94.386 Y144 E90.1434
G1 X115.609 Y144 E90.49634
G1 X115.934 Y144.309 E90.5038
G1 X116.022 Y144.4 E90.5059
G1 X93.931 Y144.4 E90.87328
G1 X93.916 Y144.413 E90.87361
G1 X93.382 Y144.783 E90.88441
G1 X93.354 Y144.8 E90.88496
G1 X116.379 Y144.8 E91.26786
G1 X116.511 Y144.951 E91.2712
G1 X116.663 Y145.14 E91.27523
G1 X116.707 Y145.2 E91.27647
G1 X92.692 Y145.2 E91.67584
G1 X92.535 Y145.305 E91.67898
G1 X92.131 Y145.6 E91.6873
G1 X117 Y145.6 E92.10087
G1 X117.041 Y145.657 E92.10204
G1 X117.164 Y145.841 E92.10572
G1 X117.26 Y146 E92.10881
G1 X91.639 Y146 E92.53489
G1 X91.341 Y146.261 E92.54148
G1 X91.197 Y146.4 E92.54481
G1 X117.502 Y146.4 E92.98226
G1 X117.607 Y146.594 E92.98593
G1 X117.708 Y146.8 E92.98974
G1 X90.816 Y146.8 E93.43696
G1 X90.722 Y146.898 E93.43922
G1 X90.582 Y147.06 E93.44278
G1 X90.471 Y147.2 E93.44575
G1 X117.902 Y147.2 E93.90193
G1 X117.979 Y147.379 E93.90517
G1 X118.064 Y147.6 E93.90911
G1 X90.157 Y147.6 E94.3732
G1 X90.038 Y147.764 E94.37657
G1 X89.883 Y148 E94.38127
G1 X118.216 Y148 E94.85245
G1 X118.221 Y148.014 E94.8527
G1 X118.398 Y148.4 E94.85976
G1 X89.627 Y148.4 E95.33822
G1 X89.578 Y148.481 E95.3398
G1 X89.408 Y148.8 E95.34581
G1 X118.612 Y148.8 E95.83147
G1 X118.837 Y149.165 E95.8386
G1 X118.865 Y149.2 E95.83935
G1 X89.201 Y149.2 E96.33266
G1 X89.169 Y149.264 E96.33385
G1 X89.026 Y149.6 E96.33992
G1 X119.183 Y149.6 E96.84144
G1 X119.515 Y149.979 E96.84982
G1 X119.532 Y150 E96.85027
G1 X88.864 Y150 E97.36028
G1 X88.836 Y150.074 E97.36159
G1 X88.731 Y150.4 E97.36729
G1 X119.836 Y150.4 E97.88457
G1 X120.044 Y150.686 E97.89045
G1 X120.121 Y150.8 E97.89274
G1 X88.606 Y150.8 E98.41683
G1 X88.575 Y150.913 E98.41878
G1 X88.51 Y151.2 E98.42367
G1 X120.366 Y151.2 E98.95344
G1 X120.508 Y151.437 E98.95804
G1 X120.597 Y151.6 E98.96112
G1 X88.421 Y151.6 E99.49621
G1 X88.392 Y151.762 E99.49895
G1 X88.36 Y152 E99.50294
G1 X120.793 Y152 E100.04231
G1 X120.89 Y152.201 E100.04602
G1 X120.977 Y152.4 E100.04963
G1 X88.305 Y152.4 E100.59297
G1 X88.301 Y152.428 E100.59344
G1 X88.284 Y152.625 E100.59673
G1 X88.277 Y152.8 E100.59964
G1 X121.13 Y152.8 E101.14599
G1 X121.215 Y153.024 E101.14997
G1 X121.274 Y153.2 E101.15306
G1 X88.259 Y153.2 E101.7021
G1 X88.252 Y153.342 E101.70446
G1 X88.252 Y153.6 E101.70875
G1 X121.388 Y153.6 E102.25981
G1 X121.46 Y153.858 E102.26426
G1 X121.493 Y154 E102.26669
G1 X88.252 Y154 E102.81949
G1 X88.252 Y154.4 E102.82614
G1 X121.572 Y154.4 E103.38025
G1 X121.634 Y154.733 E103.38589
G1 X121.644 Y154.8 E103.38701
G1 X88.251 Y154.8 E103.94234
G1 X88.251 Y155.2 E103.94899
G1 X121.687 Y155.2 E104.50504
G1 X121.723 Y155.6 E104.51171
G1 X88.251 Y155.6 E105.06836
G1 X88.25 Y156 E105.07501
G1 X121.744 Y156 E105.63202
G1 X121.749 Y156.265 E105.63642
G1 X121.748 Y156.4 E105.63867
G1 X88.25 Y156.4 E106.19574
G1 X88.25 Y156.8 E106.20239
G1 X121.745 Y156.8 E106.75942
G1 X121.743 Y157.2 E106.76607
G1 X88.25 Y157.2 E107.32306
G1 X88.263 Y157.6 E107.32972
G1 X121.732 Y157.6 E107.88631
G1 X121.702 Y158 E107.89298
G1 X88.282 Y158 E108.44876
G1 X88.314 Y158.4 E108.45543
G1 X121.671 Y158.4 E109.01016
G1 X121.643 Y158.784 E109.01656
