;FLAVOR:Marlin
;TIME:1506
;Filament used: 0.506734m
;Layer height: 0.1
;Generated with Cura_SteamEngine 3.5.1
M140 S60
M105
M190 S60
M104 S215
M105
M109 S215
M82 ;absolute extrusion mode
G21 ;metric values
G90 ;absolute positioning
M82 ;set extruder to absolute mode
M107 ;start with the fan off
G28 X0 Y0 ;move X/Y to min endstops
G28 Z0 ;move Z to min endstops
G1 Z15.0 F60 ;move the platform down 15mm
G92 E0 ;zero the extruded length
G1 F200 E3 ;extrude 3mm of feed stock
G92 E0 ;zero the extruded length again
G1 F60
M117 Printing...
G5
G92 E0
G1 F2400 E-3
;LAYER_COUNT:269
;LAYER:0
M106 S255
M204 S3000
M205 X10 Y10
G0 F1200 X94.474 Y51.197 Z0.2
M205 X8 Y8
;TYPE:SKIRT
G1 F2400 E0
G1 F1200 X94.811 Y50.726 E0.02697
G1 X95.21 Y50.306 E0.05394
G1 X95.663 Y49.944 E0.08094
G1 X96.161 Y49.649 E0.1079
G1 X96.695 Y49.424 E0.13488
G1 X97.255 Y49.276 E0.16185
G1 X97.319 Y49.27 E0.16484
G1 X97.474 Y48.975 E0.18036
G1 X97.811 Y48.504 E0.20733
G1 X98.21 Y48.084 E0.2343
G1 X98.663 Y47.722 E0.2613
G1 X99.161 Y47.427 E0.28826
G1 X99.695 Y47.202 E0.31524
G1 X100.255 Y47.054 E0.34221
G1 X101.049 Y46.978 E0.37935
G1 X108.949 Y46.977 E0.74721
G1 X109.527 Y47.017 E0.77419
G1 X110.094 Y47.136 E0.80116
G1 X110.64 Y47.332 E0.82818
G1 X111.153 Y47.601 E0.85515
G1 X111.624 Y47.938 E0.88212
G1 X112.044 Y48.337 E0.90909
G1 X112.405 Y48.789 E0.93603
G1 X112.701 Y49.288 E0.96304
G1 X112.925 Y49.822 E0.99001
G1 X113.074 Y50.382 E1.01699
G1 X113.15 Y51.177 E1.05418
G1 X113.15 Y52.179 E1.10083
G1 X113.64 Y52.355 E1.12508
G1 X114.153 Y52.624 E1.15205
G1 X114.624 Y52.961 E1.17902
G1 X115.044 Y53.36 E1.20599
G1 X115.406 Y53.813 E1.23299
G1 X115.701 Y54.311 E1.25995
G1 X115.926 Y54.845 E1.28693
G1 X116.074 Y55.405 E1.3139
G1 X116.144 Y55.98 E1.34087
G1 X116.147 Y56.364 E1.35875
G1 X116.084 Y57.975 E1.43383
G1 X116.021 Y58.551 E1.46081
G1 X115.847 Y59.212 E1.49263
G1 X115.575 Y59.981 E1.53062
G1 X115.344 Y60.512 E1.55758
G1 X115.195 Y60.775 E1.57166
G1 X114.981 Y61.124 E1.59072
G1 X114.469 Y61.797 E1.63009
G1 X113.909 Y62.396 E1.66828
G1 X113.485 Y62.791 E1.69526
G1 X113.021 Y63.118 E1.72169
G1 X112.326 Y63.54 E1.75955
G1 X111.811 Y63.806 E1.78654
G1 X111.279 Y63.994 E1.81282
G1 X110.49 Y64.215 E1.85097
G1 X109.923 Y64.333 E1.87794
G1 X109.367 Y64.371 E1.90389
G1 X100.857 Y64.392 E2.30015
G1 X100.007 Y64.307 E2.33993
G1 X99.204 Y64.143 E2.37809
G1 X98.645 Y63.988 E2.4051
G1 X98.106 Y63.754 E2.43246
G1 X97.383 Y63.378 E2.47041
G1 X96.661 Y62.903 E2.51065
G1 X96.342 Y62.642 E2.52984
G1 X95.742 Y62.04 E2.56942
G1 X95.226 Y61.405 E2.60752
G1 X94.893 Y60.931 E2.63449
G1 X94.631 Y60.423 E2.66111
G1 X94.307 Y59.674 E2.69911
G1 X94.114 Y59.128 E2.72607
G1 X94.001 Y58.579 E2.75217
G1 X93.889 Y57.765 E2.79043
G1 X93.85 Y57.193 E2.81713
G1 X93.85 Y53.4 E2.99375
G1 X93.89 Y52.822 E3.02073
G1 X94.009 Y52.255 E3.0477
G1 X94.205 Y51.71 E3.07467
G1 X94.474 Y51.197 E3.10165
M205 X10 Y10
G0 X95.032 Y51.365
M205 X8 Y8
G1 X95.365 Y50.942 E3.12671
G1 X95.758 Y50.572 E3.15185
G1 X96.201 Y50.265 E3.17694
G1 X96.685 Y50.026 E3.20208
G1 X97.198 Y49.861 E3.22717
G1 X97.699 Y49.779 E3.25081
G1 X97.764 Y49.612 E3.25915
G1 X98.032 Y49.143 E3.28431
G1 X98.365 Y48.72 E3.30938
G1 X98.758 Y48.35 E3.33451
G1 X99.201 Y48.043 E3.35961
G1 X99.685 Y47.804 E3.38474
G1 X100.198 Y47.639 E3.40983
G1 X100.73 Y47.552 E3.43494
G1 X101.05 Y47.538 E3.44985
G1 X108.95 Y47.537 E3.81771
G1 X109.487 Y47.577 E3.84278
G1 X110.013 Y47.696 E3.86789
G1 X110.516 Y47.891 E3.89301
G1 X110.984 Y48.158 E3.9181
G1 X111.408 Y48.492 E3.94324
G1 X111.778 Y48.885 E3.96837
G1 X112.085 Y49.328 E3.99347
G1 X112.324 Y49.811 E4.01856
G1 X112.489 Y50.325 E4.0437
G1 X112.576 Y50.857 E4.0688
G1 X112.59 Y51.177 E4.08371
G1 X112.59 Y52.623 E4.15104
G1 X113.014 Y52.719 E4.17129
G1 X113.516 Y52.914 E4.19636
G1 X113.985 Y53.182 E4.22152
G1 X114.408 Y53.515 E4.24658
G1 X114.778 Y53.908 E4.27172
G1 X115.085 Y54.351 E4.29682
G1 X115.324 Y54.835 E4.32195
G1 X115.489 Y55.348 E4.34704
G1 X115.576 Y55.88 E4.37214
G1 X115.587 Y56.342 E4.39366
G1 X115.524 Y57.953 E4.46874
G1 X115.463 Y58.489 E4.49385
G1 X115.319 Y59.025 E4.5197
G1 X115.047 Y59.794 E4.55768
G1 X114.718 Y60.483 E4.59323
G1 X114.504 Y60.832 E4.6123
G1 X114.06 Y61.415 E4.64642
G1 X113.5 Y62.014 E4.6846
G1 X113.104 Y62.379 E4.70968
G1 X112.73 Y62.639 E4.73089
G1 X112.035 Y63.061 E4.76875
G1 X111.555 Y63.306 E4.79384
G1 X111.128 Y63.455 E4.8149
G1 X110.339 Y63.676 E4.85305
G1 X109.81 Y63.783 E4.87819
G1 X109.366 Y63.811 E4.8989
G1 X100.856 Y63.832 E5.29516
G1 X100.119 Y63.758 E5.32965
G1 X99.316 Y63.594 E5.36782
G1 X98.797 Y63.448 E5.39292
G1 X98.365 Y63.257 E5.41492
G1 X97.642 Y62.881 E5.45286
G1 X97.016 Y62.469 E5.48776
G1 X96.697 Y62.208 E5.50695
G1 X96.177 Y61.687 E5.54123
G1 X95.661 Y61.052 E5.57933
G1 X95.353 Y60.609 E5.60445
G1 X95.145 Y60.201 E5.62577
G1 X94.821 Y59.452 E5.66377
G1 X94.644 Y58.943 E5.68887
G1 X94.556 Y58.503 E5.70976
G1 X94.444 Y57.689 E5.74802
G1 X94.41 Y57.193 E5.77117
G1 X94.41 Y53.4 E5.94779
G1 X94.45 Y52.862 E5.97291
G1 X94.569 Y52.336 E5.99802
G1 X94.764 Y51.834 E6.0231
G1 X95.032 Y51.365 E6.04825
M205 X10 Y10
G0 X95.323 Y51.968
M205 X8 Y8
G1 X95.588 Y51.549 E6.07134
G1 X95.918 Y51.178 E6.09446
G1 X96.302 Y50.864 E6.11756
G1 X96.732 Y50.616 E6.14067
G1 X97.195 Y50.441 E6.16372
G1 X97.682 Y50.342 E6.18686
G1 X98.05 Y50.32 E6.20402
G1 X98.1 Y50.32 E6.20635
G1 X98.129 Y50.202 E6.21201
G1 X98.323 Y49.746 E6.23508
G1 X98.588 Y49.327 E6.25817
G1 X98.918 Y48.956 E6.28129
G1 X99.302 Y48.642 E6.30439
G1 X99.732 Y48.394 E6.3275
G1 X100.195 Y48.219 E6.35055
G1 X100.682 Y48.12 E6.37369
G1 X101.05 Y48.098 E6.39086
G1 X108.95 Y48.097 E6.75871
G1 X109.444 Y48.137 E6.78179
G1 X109.926 Y48.256 E6.80491
G1 X110.382 Y48.45 E6.82798
G1 X110.801 Y48.715 E6.85107
G1 X111.172 Y49.044 E6.87416
G1 X111.486 Y49.429 E6.89729
G1 X111.733 Y49.858 E6.92034
G1 X111.909 Y50.322 E6.94345
G1 X112.008 Y50.808 E6.96655
G1 X112.03 Y51.177 E6.98376
G1 X112.03 Y53.126 E7.07451
G1 X112.444 Y53.16 E7.09385
G1 X112.926 Y53.279 E7.11697
G1 X113.382 Y53.473 E7.14005
G1 X113.801 Y53.738 E7.16313
G1 X114.172 Y54.068 E7.18625
G1 X114.486 Y54.452 E7.20935
G1 X114.734 Y54.882 E7.23246
G1 X114.909 Y55.345 E7.25551
G1 X115.008 Y55.832 E7.27865
G1 X115.028 Y56.32 E7.3014
G1 X114.965 Y57.931 E7.37647
G1 X114.905 Y58.424 E7.39959
G1 X114.791 Y58.838 E7.41959
G1 X114.519 Y59.607 E7.45757
G1 X114.241 Y60.19 E7.48765
G1 X114.027 Y60.539 E7.50671
G1 X113.651 Y61.032 E7.53558
G1 X113.091 Y61.631 E7.57376
G1 X112.724 Y61.965 E7.59687
G1 X112.44 Y62.161 E7.61294
G1 X111.745 Y62.583 E7.6508
G1 X111.301 Y62.805 E7.67391
G1 X110.977 Y62.916 E7.68986
G1 X110.188 Y63.137 E7.72801
G1 X109.701 Y63.232 E7.75112
G1 X109.365 Y63.251 E7.76679
G1 X100.855 Y63.272 E8.16305
G1 X100.231 Y63.21 E8.19225
G1 X99.428 Y63.046 E8.23041
G1 X98.951 Y62.908 E8.25353
G1 X98.623 Y62.761 E8.27027
G1 X97.9 Y62.385 E8.30822
G1 X97.371 Y62.036 E8.33773
G1 X97.052 Y61.775 E8.35692
G1 X96.612 Y61.333 E8.38596
G1 X96.096 Y60.698 E8.42406
G1 X95.815 Y60.29 E8.44713
G1 X95.659 Y59.979 E8.46333
G1 X95.335 Y59.23 E8.50133
G1 X95.176 Y58.76 E8.52443
G1 X95.111 Y58.427 E8.54023
G1 X94.999 Y57.613 E8.57849
G1 X94.97 Y57.193 E8.59809
G1 X94.97 Y53.4 E8.77471
G1 X95.01 Y52.906 E8.79779
G1 X95.129 Y52.424 E8.82091
G1 X95.323 Y51.968 E8.84398
M205 X10 Y10
G0 X95.882 Y52.116
M205 X8 Y8
G1 X96.144 Y51.752 E8.86487
G1 X96.466 Y51.44 E8.88574
G1 X96.839 Y51.19 E8.90665
G1 X97.25 Y51.01 E8.92755
G1 X97.686 Y50.906 E8.94842
G1 X98.05 Y50.88 E8.96541
G1 X98.557 Y50.88 E8.98902
G1 X98.57 Y50.731 E8.99598
G1 X98.688 Y50.299 E9.01683
G1 X98.882 Y49.894 E9.03775
G1 X99.144 Y49.53 E9.05863
G1 X99.466 Y49.218 E9.07951
G1 X99.839 Y48.968 E9.10042
G1 X100.25 Y48.788 E9.12131
G1 X100.686 Y48.684 E9.14218
G1 X101.05 Y48.658 E9.15917
G1 X108.95 Y48.657 E9.52703
G1 X109.396 Y48.697 E9.54788
G1 X109.829 Y48.815 E9.56878
G1 X110.234 Y49.009 E9.58969
G1 X110.598 Y49.271 E9.61057
G1 X110.91 Y49.593 E9.63145
G1 X111.16 Y49.965 E9.65232
G1 X111.339 Y50.376 E9.67319
G1 X111.444 Y50.813 E9.69412
G1 X111.47 Y51.177 E9.71111
G1 X111.47 Y53.68 E9.82766
G1 X111.95 Y53.68 E9.85001
G1 X112.397 Y53.72 E9.87091
G1 X112.829 Y53.838 E9.89176
G1 X113.234 Y54.032 E9.91268
G1 X113.598 Y54.294 E9.93356
G1 X113.91 Y54.616 E9.95444
G1 X114.16 Y54.989 E9.97534
G1 X114.34 Y55.4 E9.99624
G1 X114.444 Y55.836 E10.01711
G1 X114.468 Y56.298 E10.03865
G1 X114.405 Y57.909 E10.11372
G1 X114.348 Y58.354 E10.13461
G1 X114.263 Y58.651 E10.149
G1 X113.991 Y59.42 E10.18698
G1 X113.763 Y59.897 E10.2116
G1 X113.549 Y60.246 E10.23066
G1 X113.242 Y60.65 E10.25429
G1 X112.682 Y61.249 E10.29247
G1 X112.348 Y61.548 E10.31334
G1 X112.149 Y61.682 E10.32452
G1 X111.454 Y62.104 E10.36238
G1 X111.051 Y62.302 E10.38328
G1 X110.826 Y62.377 E10.39433
G1 X110.037 Y62.598 E10.43248
G1 X109.596 Y62.68 E10.45337
G1 X109.363 Y62.691 E10.46423
G1 X100.853 Y62.712 E10.86049
G1 X100.343 Y62.661 E10.88436
G1 X99.54 Y62.497 E10.92252
G1 X99.11 Y62.369 E10.94341
G1 X98.881 Y62.264 E10.95514
G1 X98.158 Y61.888 E10.99309
G1 X97.725 Y61.602 E11.01725
G1 X97.406 Y61.341 E11.03644
G1 X97.046 Y60.98 E11.06018
G1 X96.53 Y60.345 E11.09828
G1 X96.28 Y59.973 E11.11915
G1 X96.173 Y59.756 E11.13042
G1 X95.849 Y59.007 E11.16842
G1 X95.708 Y58.582 E11.18927
G1 X95.666 Y58.35 E11.20025
G1 X95.554 Y57.536 E11.23851
G1 X95.53 Y57.193 E11.25452
G1 X95.53 Y53.4 E11.43114
G1 X95.57 Y52.953 E11.45204
G1 X95.688 Y52.521 E11.47289
G1 X95.882 Y52.116 E11.4938
M205 X10 Y10
G0 X96.439 Y52.283
M205 X8 Y8
G1 X96.696 Y51.982 E11.51223
G1 X97.009 Y51.74 E11.53065
G1 X97.363 Y51.564 E11.54906
G1 X97.746 Y51.464 E11.56749
G1 X98.05 Y51.44 E11.58169
G1 X99.09 Y51.44 E11.63012
G1 X99.09 Y51.178 E11.64232
G1 X99.13 Y50.785 E11.66071
G1 X99.248 Y50.407 E11.67915
G1 X99.439 Y50.061 E11.69755
G1 X99.696 Y49.76 E11.71598
G1 X100.009 Y49.518 E11.73441
G1 X100.363 Y49.342 E11.75281
G1 X100.746 Y49.242 E11.77125
G1 X101.05 Y49.218 E11.78545
G1 X108.95 Y49.217 E12.1533
G1 X109.343 Y49.257 E12.1717
G1 X109.721 Y49.375 E12.19014
G1 X110.067 Y49.566 E12.20854
G1 X110.367 Y49.823 E12.22693
G1 X110.61 Y50.135 E12.24535
G1 X110.786 Y50.49 E12.2638
G1 X110.886 Y50.872 E12.28219
G1 X110.91 Y51.177 E12.29643
G1 X110.91 Y54.24 E12.43906
G1 X111.95 Y54.24 E12.48748
G1 X112.343 Y54.28 E12.50588
G1 X112.721 Y54.398 E12.52432
G1 X113.067 Y54.589 E12.54272
G1 X113.368 Y54.846 E12.56115
G1 X113.61 Y55.159 E12.57957
G1 X113.786 Y55.513 E12.59798
G1 X113.886 Y55.896 E12.61641
G1 X113.909 Y56.277 E12.63419
G1 X113.846 Y57.888 E12.70926
G1 X113.735 Y58.465 E12.73662
G1 X113.463 Y59.234 E12.7746
G1 X113.286 Y59.605 E12.79374
G1 X113.072 Y59.954 E12.8128
G1 X112.833 Y60.268 E12.83118
G1 X112.273 Y60.867 E12.86936
G1 X111.858 Y61.203 E12.89423
G1 X111.163 Y61.625 E12.93209
G1 X110.675 Y61.837 E12.95686
G1 X109.886 Y62.058 E12.99501
G1 X109.362 Y62.131 E13.01965
G1 X100.852 Y62.152 E13.41591
G1 X100.455 Y62.112 E13.43449
G1 X99.652 Y61.948 E13.47265
G1 X99.14 Y61.767 E13.49794
G1 X98.417 Y61.391 E13.53589
G1 X98.08 Y61.169 E13.55468
G1 X97.761 Y60.908 E13.57387
G1 X97.481 Y60.627 E13.59234
G1 X96.965 Y59.992 E13.63044
G1 X96.687 Y59.534 E13.65539
G1 X96.363 Y58.785 E13.69339
G1 X96.22 Y58.274 E13.7181
G1 X96.108 Y57.46 E13.75636
G1 X96.09 Y57.193 E13.76882
G1 X96.09 Y53.4 E13.94544
G1 X96.13 Y53.007 E13.96383
G1 X96.248 Y52.629 E13.98227
G1 X96.439 Y52.283 E14.00067
M205 X10 Y10
G0 X96.807 Y52.756
M205 X8 Y8
G1 X96.995 Y52.479 E14.01626
G1 X97.243 Y52.256 E14.03179
G1 X97.537 Y52.097 E14.04735
G1 X97.861 Y52.013 E14.06294
G1 X98.05 Y52 E14.07176
G1 X99.65 Y52 E14.14626
G1 X99.65 Y51.178 E14.18454
G1 X99.69 Y50.846 E14.20011
G1 X99.807 Y50.534 E14.21563
G1 X99.995 Y50.257 E14.23122
G1 X100.243 Y50.034 E14.24675
G1 X100.537 Y49.875 E14.26231
G1 X100.861 Y49.791 E14.2779
G1 X101.05 Y49.778 E14.28672
G1 X108.95 Y49.777 E14.65457
G1 X109.282 Y49.817 E14.67014
G1 X109.594 Y49.934 E14.68566
G1 X109.87 Y50.122 E14.70121
G1 X110.094 Y50.37 E14.71677
G1 X110.253 Y50.664 E14.73234
G1 X110.337 Y50.987 E14.74788
G1 X110.35 Y51.177 E14.75674
G1 X110.35 Y54.8 E14.92545
G1 X111.95 Y54.8 E14.99995
G1 X112.282 Y54.84 E15.01552
G1 X112.594 Y54.957 E15.03104
G1 X112.871 Y55.145 E15.04662
G1 X113.094 Y55.393 E15.06215
G1 X113.253 Y55.687 E15.07772
G1 X113.337 Y56.011 E15.0933
G1 X113.349 Y56.255 E15.10468
G1 X113.286 Y57.866 E15.17975
G1 X113.207 Y58.278 E15.19928
G1 X112.935 Y59.047 E15.23727
G1 X112.808 Y59.312 E15.25095
G1 X112.594 Y59.661 E15.27001
G1 X112.424 Y59.885 E15.28311
G1 X111.864 Y60.484 E15.32129
G1 X111.568 Y60.725 E15.33906
G1 X110.873 Y61.147 E15.37692
G1 X110.524 Y61.298 E15.39463
G1 X109.735 Y61.519 E15.43278
G1 X109.36 Y61.571 E15.45041
G1 X100.85 Y61.592 E15.84667
G1 X100.567 Y61.564 E15.85992
G1 X99.764 Y61.4 E15.89808
G1 X99.398 Y61.27 E15.91617
G1 X98.675 Y60.894 E15.95411
G1 X98.434 Y60.736 E15.96753
G1 X98.115 Y60.475 E15.98672
G1 X97.915 Y60.274 E15.99993
G1 X97.399 Y59.639 E16.03803
G1 X97.201 Y59.312 E16.05583
G1 X96.877 Y58.563 E16.09383
G1 X96.775 Y58.198 E16.11147
G1 X96.663 Y57.384 E16.14973
G1 X96.65 Y57.193 E16.15865
G1 X96.65 Y53.4 E16.33527
G1 X96.69 Y53.068 E16.35084
G1 X96.807 Y52.756 E16.36635
M205 X10 Y10
G0 X97.365 Y52.913
M205 X8 Y8
G1 X97.546 Y52.728 E16.3784
G1 X97.774 Y52.607 E16.39042
G1 X98.05 Y52.56 E16.40346
G1 X100.21 Y52.56 E16.50404
G1 X100.21 Y51.178 E16.56839
G1 X100.25 Y50.923 E16.58041
G1 X100.365 Y50.691 E16.59247
G1 X100.546 Y50.506 E16.60452
G1 X100.774 Y50.385 E16.61654
G1 X101.05 Y50.338 E16.62957
G1 X108.95 Y50.337 E16.99743
G1 X109.205 Y50.377 E17.00945
G1 X109.436 Y50.492 E17.02147
G1 X109.622 Y50.673 E17.03355
G1 X109.743 Y50.901 E17.04557
G1 X109.79 Y51.177 E17.05861
G1 X109.79 Y55.36 E17.25338
G1 X111.95 Y55.36 E17.35396
G1 X112.205 Y55.4 E17.36598
G1 X112.437 Y55.515 E17.37804
G1 X112.622 Y55.696 E17.39009
G1 X112.743 Y55.924 E17.40211
G1 X112.789 Y56.233 E17.41666
G1 X112.726 Y57.844 E17.49173
G1 X112.679 Y58.091 E17.50344
G1 X112.407 Y58.86 E17.54142
G1 X112.331 Y59.019 E17.54962
G1 X112.117 Y59.368 E17.56869
G1 X112.015 Y59.503 E17.57657
G1 X111.455 Y60.102 E17.61475
G1 X111.277 Y60.246 E17.62541
G1 X110.582 Y60.668 E17.66327
G1 X110.373 Y60.759 E17.67388
G1 X109.584 Y60.98 E17.71204
G1 X109.359 Y61.011 E17.72261
G1 X100.849 Y61.032 E18.11888
G1 X100.679 Y61.015 E18.12683
G1 X99.876 Y60.851 E18.16499
G1 X99.656 Y60.773 E18.17586
G1 X98.933 Y60.397 E18.21381
G1 X98.789 Y60.302 E18.22184
G1 X98.47 Y60.041 E18.24104
G1 X98.35 Y59.921 E18.24894
G1 X97.834 Y59.286 E18.28704
G1 X97.715 Y59.089 E18.29775
G1 X97.391 Y58.34 E18.33575
G1 X97.33 Y58.121 E18.34634
G1 X97.218 Y57.307 E18.3846
G1 X97.21 Y57.193 E18.38992
G1 X97.21 Y53.4 E18.56654
G1 X97.25 Y53.145 E18.57856
G1 X97.365 Y52.913 E18.59062
M205 X10 Y10
G0 X97.809 Y53.257
M205 X8 Y8
G1 X97.916 Y53.154 E18.59753
G1 X98.05 Y53.12 E18.60397
G1 X100.77 Y53.12 E18.73062
G1 X100.77 Y51.178 E18.82105
G1 X100.809 Y51.035 E18.82795
G1 X100.916 Y50.932 E18.83487
G1 X101.05 Y50.898 E18.84131
G1 X108.95 Y50.897 E19.20916
G1 X109.093 Y50.936 E19.21606
G1 X109.196 Y51.043 E19.22298
G1 X109.23 Y51.177 E19.22942
G1 X109.23 Y55.92 E19.45027
G1 X111.95 Y55.92 E19.57693
G1 X112.093 Y55.959 E19.58383
G1 X112.196 Y56.066 E19.59074
G1 X112.23 Y56.211 E19.59768
G1 X112.167 Y57.822 E19.67275
G1 X112.151 Y57.904 E19.67664
G1 X111.879 Y58.673 E19.71462
G1 X111.854 Y58.726 E19.71735
G1 X111.64 Y59.075 E19.73641
G1 X111.606 Y59.12 E19.73904
G1 X111.046 Y59.719 E19.77722
G1 X110.986 Y59.767 E19.7808
G1 X110.291 Y60.189 E19.81866
G1 X110.222 Y60.22 E19.82218
G1 X109.433 Y60.441 E19.86034
G1 X109.358 Y60.451 E19.86386
G1 X100.848 Y60.472 E20.26012
G1 X100.791 Y60.466 E20.26279
G1 X99.988 Y60.302 E20.30095
G1 X99.915 Y60.276 E20.30456
G1 X99.192 Y59.9 E20.34251
G1 X99.144 Y59.869 E20.34517
G1 X98.825 Y59.608 E20.36436
G1 X98.785 Y59.568 E20.367
G1 X98.269 Y58.933 E20.4051
G1 X98.229 Y58.867 E20.40869
G1 X97.905 Y58.118 E20.44669
G1 X97.885 Y58.045 E20.45021
G1 X97.773 Y57.231 E20.48847
G1 X97.77 Y57.193 E20.49025
G1 X97.77 Y53.4 E20.66687
G1 X97.809 Y53.257 E20.67377
M205 X10 Y10
G1 F2400 E17.67377
