;FLAVOR:Marlin
;TIME:598
;Filament used: 0.379447m
;Layer height: 0.1
;Generated with Cura_SteamEngine 3.5.1
M140 S60
M105
M190 S60
M104 S215
M105
M109 S215
M82 ;absolute extrusion mode
G21 ;metric values
G90 ;absolute positioning
M82 ;set extruder to absolute mode
M107 ;start with the fan off
G28 X0 Y0 ;move X/Y to min endstops
G28 Z0 ;move Z to min endstops
G1 Z15.0 F60 ;move the platform down 15mm
G92 E0 ;zero the extruded length
G1 F200 E3 ;extrude 3mm of feed stock
G92 E0 ;zero the extruded length again
G1 F60
M117 Printing...
G5
G92 E0
G1 F2400 E-3
;LAYER_COUNT:64
;LAYER:0
M106 S255
M204 S3000
M205 X10 Y10
G0 F1200 X95.99 Y51.232 Z0.2
M205 X8 Y8
;TYPE:SKIRT
G1 F2400 E0
G1 F1200 X96.335 Y50.603 E0.03341
G1 X96.747 Y50.016 E0.0668
G1 X97.223 Y49.479 E0.10021
G1 X97.755 Y48.998 E0.13361
G1 X98.338 Y48.579 E0.16704
G1 X98.964 Y48.227 E0.20048
G1 X99.624 Y47.948 E0.23385
G1 X100.312 Y47.743 E0.26728
G1 X101.018 Y47.617 E0.30067
G1 X101.8 Y47.569 E0.33715
G1 X108.2 Y47.569 E0.63516
G1 X108.916 Y47.609 E0.66855
G1 X109.624 Y47.728 E0.70198
G1 X110.314 Y47.926 E0.73541
G1 X110.977 Y48.199 E0.7688
G1 X111.606 Y48.544 E0.8022
G1 X112.193 Y48.956 E0.8356
G1 X112.73 Y49.432 E0.86901
G1 X113.211 Y49.964 E0.90241
G1 X113.63 Y50.547 E0.93584
G1 X113.982 Y51.173 E0.96928
G1 X114.261 Y51.833 E1.00264
G1 X114.466 Y52.521 E1.03607
G1 X114.592 Y53.227 E1.06946
G1 X114.64 Y54.009 E1.10595
G1 X114.64 Y86.009 E2.596
G1 X114.6 Y86.725 E2.62939
G1 X114.481 Y87.433 E2.66282
G1 X114.283 Y88.123 E2.69625
G1 X114.01 Y88.786 E2.72964
G1 X113.665 Y89.415 E2.76304
G1 X113.253 Y90.002 E2.79643
G1 X112.777 Y90.539 E2.82985
G1 X112.245 Y91.02 E2.86324
G1 X111.662 Y91.439 E2.89668
G1 X111.036 Y91.791 E2.93012
G1 X110.376 Y92.07 E2.96348
G1 X109.688 Y92.275 E2.99691
G1 X108.982 Y92.401 E3.0303
G1 X108.2 Y92.449 E3.06679
G1 X101.8 Y92.449 E3.3648
G1 X101.084 Y92.409 E3.39819
G1 X100.376 Y92.29 E3.43162
G1 X99.686 Y92.092 E3.46504
G1 X99.023 Y91.819 E3.49843
G1 X98.394 Y91.474 E3.53184
G1 X97.807 Y91.062 E3.56523
G1 X97.27 Y90.586 E3.59864
G1 X96.789 Y90.054 E3.63204
G1 X96.37 Y89.471 E3.66547
G1 X96.018 Y88.845 E3.69891
G1 X95.739 Y88.185 E3.73228
G1 X95.534 Y87.497 E3.76571
G1 X95.408 Y86.791 E3.7991
G1 X95.36 Y86.009 E3.83558
G1 X95.36 Y54.009 E5.32564
G1 X95.4 Y53.293 E5.35903
G1 X95.519 Y52.585 E5.39246
G1 X95.717 Y51.895 E5.42588
G1 X95.99 Y51.232 E5.45927
M205 X10 Y10
G0 X96.549 Y51.364
M205 X8 Y8
G1 X96.892 Y50.77 E5.49121
G1 X97.303 Y50.221 E5.52314
G1 X97.774 Y49.723 E5.55506
G1 X98.3 Y49.284 E5.58696
G1 X98.874 Y48.909 E5.61889
G1 X99.487 Y48.603 E5.65079
G1 X100.132 Y48.37 E5.68273
G1 X100.8 Y48.215 E5.71466
G1 X101.8 Y48.129 E5.76139
G1 X108.2 Y48.129 E6.0594
G1 X108.884 Y48.169 E6.09131
G1 X109.559 Y48.288 E6.12322
G1 X110.216 Y48.485 E6.15516
G1 X110.845 Y48.758 E6.18709
G1 X111.439 Y49.101 E6.21903
G1 X111.988 Y49.512 E6.25096
G1 X112.486 Y49.983 E6.28288
G1 X112.925 Y50.509 E6.31478
G1 X113.3 Y51.083 E6.34671
G1 X113.606 Y51.696 E6.37861
G1 X113.839 Y52.341 E6.41055
G1 X113.994 Y53.009 E6.44248
G1 X114.08 Y54.009 E6.48921
G1 X114.08 Y86.009 E7.97927
G1 X114.04 Y86.693 E8.01117
G1 X113.921 Y87.368 E8.04309
G1 X113.724 Y88.025 E8.07503
G1 X113.451 Y88.654 E8.10695
G1 X113.108 Y89.248 E8.13889
G1 X112.697 Y89.797 E8.17083
G1 X112.226 Y90.295 E8.20274
G1 X111.7 Y90.734 E8.23465
G1 X111.126 Y91.109 E8.26657
G1 X110.513 Y91.415 E8.29848
G1 X109.868 Y91.648 E8.33041
G1 X109.2 Y91.803 E8.36234
G1 X108.2 Y91.889 E8.40908
G1 X101.8 Y91.889 E8.70709
G1 X101.116 Y91.849 E8.73899
G1 X100.441 Y91.73 E8.77091
G1 X99.784 Y91.533 E8.80285
G1 X99.155 Y91.26 E8.83477
G1 X98.561 Y90.917 E8.86671
G1 X98.012 Y90.506 E8.89865
G1 X97.514 Y90.035 E8.93056
G1 X97.075 Y89.509 E8.96247
G1 X96.7 Y88.935 E8.99439
G1 X96.394 Y88.322 E9.0263
G1 X96.161 Y87.677 E9.05823
G1 X96.006 Y87.009 E9.09016
G1 X95.92 Y86.009 E9.1369
G1 X95.92 Y54.009 E10.62695
G1 X95.96 Y53.325 E10.65885
G1 X96.079 Y52.65 E10.69077
G1 X96.276 Y51.993 E10.72271
G1 X96.549 Y51.364 E10.75464
M205 X10 Y10
G0 X97.107 Y51.503
M205 X8 Y8
G1 X97.449 Y50.947 E10.78503
G1 X97.857 Y50.438 E10.81541
G1 X98.323 Y49.982 E10.84577
G1 X98.842 Y49.587 E10.87614
G1 X99.405 Y49.259 E10.90648
G1 X100.004 Y49.001 E10.93685
G1 X100.63 Y48.819 E10.9672
G1 X101.274 Y48.715 E10.99758
G1 X101.8 Y48.689 E11.0221
G1 X108.2 Y48.689 E11.32011
G1 X108.851 Y48.729 E11.35048
G1 X109.492 Y48.848 E11.38084
G1 X110.114 Y49.045 E11.41122
G1 X110.706 Y49.316 E11.44154
G1 X111.262 Y49.658 E11.47193
G1 X111.771 Y50.066 E11.50231
G1 X112.227 Y50.532 E11.53267
G1 X112.622 Y51.051 E11.56304
G1 X112.95 Y51.614 E11.59338
G1 X113.208 Y52.213 E11.62375
G1 X113.39 Y52.839 E11.6541
G1 X113.494 Y53.483 E11.68448
G1 X113.52 Y54.009 E11.709
G1 X113.52 Y86.009 E13.19906
G1 X113.48 Y86.66 E13.22943
G1 X113.361 Y87.301 E13.25978
G1 X113.164 Y87.923 E13.29017
G1 X112.893 Y88.515 E13.32048
G1 X112.551 Y89.071 E13.35088
G1 X112.143 Y89.58 E13.38125
G1 X111.677 Y90.036 E13.41161
G1 X111.158 Y90.431 E13.44198
G1 X110.595 Y90.759 E13.47232
G1 X109.996 Y91.017 E13.50269
G1 X109.37 Y91.199 E13.53305
G1 X108.726 Y91.303 E13.56342
G1 X108.2 Y91.329 E13.58795
G1 X101.8 Y91.329 E13.88596
G1 X101.149 Y91.289 E13.91633
G1 X100.508 Y91.17 E13.94669
G1 X99.886 Y90.973 E13.97707
G1 X99.294 Y90.702 E14.00738
G1 X98.738 Y90.36 E14.03778
G1 X98.229 Y89.952 E14.06815
G1 X97.773 Y89.486 E14.09851
G1 X97.378 Y88.967 E14.12888
G1 X97.05 Y88.404 E14.15922
G1 X96.792 Y87.805 E14.18959
G1 X96.61 Y87.179 E14.21995
G1 X96.506 Y86.535 E14.25033
G1 X96.48 Y86.009 E14.27485
G1 X96.48 Y54.009 E15.7649
G1 X96.52 Y53.358 E15.79527
G1 X96.639 Y52.717 E15.82563
G1 X96.836 Y52.095 E15.85601
G1 X97.107 Y51.503 E15.88633
M205 X10 Y10
G0 X97.396 Y52.204
M205 X8 Y8
G1 X97.666 Y51.649 E15.91507
G1 X98.006 Y51.135 E15.94376
G1 X98.409 Y50.668 E15.97249
G1 X98.87 Y50.258 E16.00121
G1 X99.379 Y49.91 E16.02992
G1 X99.93 Y49.632 E16.05866
G1 X100.511 Y49.427 E16.08735
G1 X101.115 Y49.299 E16.1161
G1 X101.8 Y49.249 E16.14808
G1 X108.2 Y49.249 E16.44609
G1 X108.815 Y49.289 E16.47479
G1 X109.421 Y49.408 E16.50355
G1 X110.005 Y49.605 E16.53225
G1 X110.56 Y49.875 E16.56098
G1 X111.074 Y50.215 E16.58968
G1 X111.541 Y50.618 E16.6184
G1 X111.951 Y51.079 E16.64713
G1 X112.299 Y51.588 E16.67584
G1 X112.577 Y52.139 E16.70458
G1 X112.782 Y52.72 E16.73327
G1 X112.91 Y53.324 E16.76202
G1 X112.96 Y54.009 E16.794
G1 X112.96 Y86.009 E18.28405
G1 X112.92 Y86.624 E18.31275
G1 X112.801 Y87.23 E18.34151
G1 X112.604 Y87.814 E18.37021
G1 X112.334 Y88.369 E18.39895
G1 X111.994 Y88.883 E18.42764
G1 X111.591 Y89.35 E18.45636
G1 X111.13 Y89.76 E18.48509
G1 X110.621 Y90.108 E18.5138
G1 X110.07 Y90.386 E18.54254
G1 X109.489 Y90.591 E18.57123
G1 X108.885 Y90.719 E18.59998
G1 X108.2 Y90.769 E18.63196
G1 X101.8 Y90.769 E18.92997
G1 X101.185 Y90.729 E18.95867
G1 X100.579 Y90.61 E18.98743
G1 X99.995 Y90.413 E19.01612
G1 X99.44 Y90.143 E19.04486
G1 X98.926 Y89.803 E19.07356
G1 X98.459 Y89.4 E19.10228
G1 X98.049 Y88.939 E19.13101
G1 X97.701 Y88.43 E19.15972
G1 X97.423 Y87.879 E19.18846
G1 X97.218 Y87.298 E19.21715
G1 X97.09 Y86.694 E19.2459
G1 X97.04 Y86.009 E19.27788
G1 X97.04 Y54.009 E20.76793
G1 X97.08 Y53.394 E20.79663
G1 X97.199 Y52.788 E20.82539
G1 X97.396 Y52.204 E20.85409
M205 X10 Y10
G0 X97.955 Y52.319
M205 X8 Y8
G1 X98.224 Y51.806 E20.88106
G1 X98.561 Y51.335 E20.90802
G1 X98.96 Y50.915 E20.935
G1 X99.413 Y50.553 E20.962
G1 X99.911 Y50.258 E20.98895
G1 X100.445 Y50.033 E21.01594
G1 X101.005 Y49.885 E21.04291
G1 X101.8 Y49.809 E21.08009
G1 X108.2 Y49.809 E21.37811
G1 X108.778 Y49.849 E21.40508
G1 X109.345 Y49.968 E21.43206
G1 X109.89 Y50.164 E21.45903
G1 X110.403 Y50.433 E21.486
G1 X110.874 Y50.77 E21.51297
G1 X111.294 Y51.169 E21.53994
G1 X111.656 Y51.622 E21.56695
G1 X111.951 Y52.12 E21.5939
G1 X112.176 Y52.654 E21.62088
G1 X112.324 Y53.214 E21.64785
G1 X112.4 Y54.009 E21.68504
G1 X112.4 Y86.009 E23.17509
G1 X112.36 Y86.587 E23.20207
G1 X112.241 Y87.154 E23.22905
G1 X112.045 Y87.699 E23.25602
G1 X111.776 Y88.212 E23.28299
G1 X111.439 Y88.683 E23.30996
G1 X111.04 Y89.103 E23.33693
G1 X110.587 Y89.465 E23.36393
G1 X110.089 Y89.76 E23.39089
G1 X109.555 Y89.985 E23.41787
G1 X108.995 Y90.133 E23.44484
G1 X108.2 Y90.209 E23.48203
G1 X101.8 Y90.209 E23.78004
G1 X101.222 Y90.169 E23.80702
G1 X100.655 Y90.05 E23.83399
G1 X100.11 Y89.854 E23.86096
G1 X99.597 Y89.585 E23.88793
G1 X99.126 Y89.248 E23.9149
G1 X98.706 Y88.849 E23.94188
G1 X98.344 Y88.396 E23.96888
G1 X98.049 Y87.898 E23.99583
G1 X97.824 Y87.364 E24.02281
G1 X97.676 Y86.804 E24.04978
G1 X97.6 Y86.009 E24.08697
G1 X97.6 Y54.009 E25.57702
G1 X97.64 Y53.431 E25.604
G1 X97.759 Y52.864 E25.63098
G1 X97.955 Y52.319 E25.65795
M205 X10 Y10
G0 X98.514 Y52.443
M205 X8 Y8
G1 X98.782 Y51.974 E25.6831
G1 X99.115 Y51.551 E25.70817
G1 X99.508 Y51.181 E25.7333
G1 X99.951 Y50.874 E25.7584
G1 X100.435 Y50.635 E25.78354
G1 X100.948 Y50.47 E25.80863
G1 X101.48 Y50.383 E25.83373
G1 X101.8 Y50.369 E25.84864
G1 X108.2 Y50.369 E26.14665
G1 X108.738 Y50.409 E26.17178
G1 X109.264 Y50.528 E26.19689
G1 X109.766 Y50.723 E26.22196
G1 X110.235 Y50.991 E26.24712
G1 X110.658 Y51.324 E26.27218
G1 X111.028 Y51.717 E26.29732
G1 X111.335 Y52.16 E26.32242
G1 X111.574 Y52.644 E26.34755
G1 X111.739 Y53.157 E26.37264
G1 X111.826 Y53.689 E26.39774
G1 X111.84 Y54.009 E26.41266
G1 X111.84 Y86.009 E27.90271
G1 X111.8 Y86.547 E27.92783
G1 X111.681 Y87.073 E27.95295
G1 X111.486 Y87.575 E27.97802
G1 X111.218 Y88.044 E28.00317
G1 X110.885 Y88.467 E28.02824
G1 X110.492 Y88.837 E28.05338
G1 X110.049 Y89.144 E28.07847
G1 X109.565 Y89.383 E28.10361
G1 X109.052 Y89.548 E28.1287
G1 X108.52 Y89.635 E28.1538
G1 X108.2 Y89.649 E28.16872
G1 X101.8 Y89.649 E28.46673
G1 X101.262 Y89.609 E28.49185
G1 X100.736 Y89.49 E28.51696
G1 X100.234 Y89.295 E28.54204
G1 X99.765 Y89.027 E28.56719
G1 X99.342 Y88.694 E28.59226
G1 X98.972 Y88.301 E28.61739
G1 X98.665 Y87.858 E28.64249
G1 X98.426 Y87.374 E28.66762
G1 X98.261 Y86.861 E28.69272
G1 X98.174 Y86.329 E28.71782
G1 X98.16 Y86.009 E28.73273
G1 X98.16 Y54.009 E30.22279
G1 X98.2 Y53.471 E30.24791
G1 X98.319 Y52.945 E30.27302
G1 X98.514 Y52.443 E30.2981
M205 X10 Y10
G0 X99.073 Y52.577
M205 X8 Y8
G1 X99.338 Y52.158 E30.32118
G1 X99.668 Y51.787 E30.3443
G1 X100.052 Y51.473 E30.3674
G1 X100.482 Y51.225 E30.39051
G1 X100.945 Y51.05 E30.41356
G1 X101.432 Y50.951 E30.4367
G1 X101.8 Y50.929 E30.45387
G1 X108.2 Y50.929 E30.75188
G1 X108.694 Y50.969 E30.77496
G1 X109.176 Y51.088 E30.79807
G1 X109.632 Y51.282 E30.82115
G1 X110.051 Y51.547 E30.84423
G1 X110.422 Y51.877 E30.86735
G1 X110.736 Y52.261 E30.89045
G1 X110.984 Y52.691 E30.91357
G1 X111.159 Y53.154 E30.93661
G1 X111.258 Y53.641 E30.95975
G1 X111.28 Y54.009 E30.97692
G1 X111.28 Y86.009 E32.46697
G1 X111.24 Y86.503 E32.49005
G1 X111.121 Y86.985 E32.51317
G1 X110.927 Y87.441 E32.53625
G1 X110.662 Y87.86 E32.55933
G1 X110.332 Y88.231 E32.58245
G1 X109.948 Y88.545 E32.60555
G1 X109.518 Y88.793 E32.62866
G1 X109.055 Y88.968 E32.65171
G1 X108.568 Y89.067 E32.67485
G1 X108.2 Y89.089 E32.69202
G1 X101.8 Y89.089 E32.99003
G1 X101.306 Y89.049 E33.01311
G1 X100.824 Y88.93 E33.03622
G1 X100.368 Y88.736 E33.0593
G1 X99.949 Y88.471 E33.08238
G1 X99.578 Y88.141 E33.1055
G1 X99.264 Y87.757 E33.1286
G1 X99.016 Y87.327 E33.15172
G1 X98.841 Y86.864 E33.17476
G1 X98.742 Y86.377 E33.1979
G1 X98.72 Y86.009 E33.21507
G1 X98.72 Y54.009 E34.70512
G1 X98.76 Y53.515 E34.7282
G1 X98.879 Y53.033 E34.75132
G1 X99.073 Y52.577 E34.7744
M205 X10 Y10
G0 X99.438 Y53.13
M205 X8 Y8
G1 X99.632 Y52.725 E34.79531
G1 X99.894 Y52.361 E34.81619
G1 X100.216 Y52.049 E34.83707
G1 X100.589 Y51.799 E34.85798
G1 X101 Y51.619 E34.87887
G1 X101.436 Y51.515 E34.89974
G1 X101.8 Y51.489 E34.91673
G1 X108.2 Y51.489 E35.21474
G1 X108.647 Y51.529 E35.23564
G1 X109.079 Y51.647 E35.25649
G1 X109.484 Y51.841 E35.2774
G1 X109.848 Y52.103 E35.29829
G1 X110.16 Y52.425 E35.31916
G1 X110.41 Y52.798 E35.34007
G1 X110.59 Y53.209 E35.36097
G1 X110.694 Y53.645 E35.38184
G1 X110.72 Y54.009 E35.39883
G1 X110.72 Y86.009 E36.88888
G1 X110.68 Y86.456 E36.90978
G1 X110.562 Y86.888 E36.93063
G1 X110.368 Y87.293 E36.95154
G1 X110.106 Y87.657 E36.97243
G1 X109.784 Y87.969 E36.99331
G1 X109.411 Y88.219 E37.01421
G1 X109 Y88.399 E37.03511
G1 X108.564 Y88.503 E37.05598
G1 X108.2 Y88.529 E37.07297
G1 X101.8 Y88.529 E37.37098
G1 X101.353 Y88.489 E37.39188
G1 X100.921 Y88.371 E37.41273
G1 X100.516 Y88.177 E37.43364
G1 X100.152 Y87.915 E37.45453
G1 X99.84 Y87.593 E37.4754
G1 X99.59 Y87.22 E37.49631
G1 X99.41 Y86.809 E37.51721
G1 X99.306 Y86.373 E37.53808
G1 X99.28 Y86.009 E37.55507
G1 X99.28 Y54.009 E39.04512
G1 X99.32 Y53.562 E39.06602
G1 X99.438 Y53.13 E39.08687
M205 X10 Y10
G0 X99.998 Y53.238
M205 X8 Y8
G1 X100.189 Y52.892 E39.10528
G1 X100.446 Y52.591 E39.12371
G1 X100.759 Y52.349 E39.14213
G1 X101.113 Y52.173 E39.16054
G1 X101.496 Y52.073 E39.17897
G1 X101.8 Y52.049 E39.19317
G1 X108.2 Y52.049 E39.49118
G1 X108.593 Y52.089 E39.50957
G1 X108.971 Y52.207 E39.52801
G1 X109.317 Y52.398 E39.54642
G1 X109.618 Y52.655 E39.56485
G1 X109.86 Y52.968 E39.58327
G1 X110.036 Y53.322 E39.60168
G1 X110.136 Y53.705 E39.62011
G1 X110.16 Y54.009 E39.63431
G1 X110.16 Y86.009 E41.12436
G1 X110.12 Y86.402 E41.14276
G1 X110.002 Y86.78 E41.1612
G1 X109.811 Y87.126 E41.1796
G1 X109.554 Y87.427 E41.19803
G1 X109.241 Y87.669 E41.21645
G1 X108.887 Y87.845 E41.23486
G1 X108.504 Y87.945 E41.25329
G1 X108.2 Y87.969 E41.26749
G1 X101.8 Y87.969 E41.5655
G1 X101.407 Y87.929 E41.5839
G1 X101.029 Y87.811 E41.60234
G1 X100.683 Y87.62 E41.62074
G1 X100.382 Y87.363 E41.63917
G1 X100.14 Y87.05 E41.65759
G1 X99.964 Y86.696 E41.676
G1 X99.864 Y86.313 E41.69443
G1 X99.84 Y86.009 E41.70863
G1 X99.84 Y54.009 E43.19868
G1 X99.88 Y53.616 E43.21708
G1 X99.998 Y53.238 E43.23552
M205 X10 Y10
G0 X100.557 Y53.365
M205 X8 Y8
G1 X100.745 Y53.088 E43.25111
G1 X100.993 Y52.865 E43.26664
G1 X101.287 Y52.706 E43.2822
G1 X101.611 Y52.622 E43.29779
G1 X101.8 Y52.609 E43.30661
G1 X108.2 Y52.609 E43.60462
G1 X108.532 Y52.649 E43.62019
G1 X108.844 Y52.766 E43.63571
G1 X109.121 Y52.954 E43.65129
G1 X109.344 Y53.202 E43.66682
G1 X109.503 Y53.496 E43.68239
G1 X109.587 Y53.82 E43.69797
G1 X109.6 Y54.009 E43.70679
G1 X109.6 Y86.009 E45.19685
G1 X109.56 Y86.341 E45.21242
G1 X109.443 Y86.653 E45.22794
G1 X109.255 Y86.93 E45.24352
G1 X109.007 Y87.153 E45.25905
G1 X108.713 Y87.312 E45.27462
G1 X108.389 Y87.396 E45.2902
G1 X108.2 Y87.409 E45.29902
G1 X101.8 Y87.409 E45.59703
G1 X101.468 Y87.369 E45.61261
G1 X101.156 Y87.252 E45.62812
G1 X100.879 Y87.064 E45.64371
G1 X100.656 Y86.816 E45.65924
G1 X100.497 Y86.522 E45.6748
G1 X100.413 Y86.198 E45.69039
G1 X100.4 Y86.009 E45.69921
G1 X100.4 Y54.009 E47.18927
G1 X100.44 Y53.677 E47.20484
G1 X100.557 Y53.365 E47.22035
M205 X10 Y10
G0 X101 Y53.754
M205 X8 Y8
G1 X101.115 Y53.522 E47.23241
G1 X101.296 Y53.337 E47.24446
G1 X101.524 Y53.216 E47.25648
G1 X101.8 Y53.169 E47.26952
G1 X108.2 Y53.169 E47.56753
G1 X108.455 Y53.209 E47.57955
G1 X108.687 Y53.324 E47.5916
G1 X108.872 Y53.505 E47.60366
G1 X108.993 Y53.733 E47.61567
G1 X109.04 Y54.009 E47.62871
G1 X109.04 Y86.009 E49.11877
G1 X109 Y86.264 E49.13078
G1 X108.885 Y86.496 E49.14284
G1 X108.704 Y86.681 E49.15489
G1 X108.476 Y86.802 E49.16691
G1 X108.2 Y86.849 E49.17995
G1 X101.8 Y86.849 E49.47796
G1 X101.545 Y86.809 E49.48998
G1 X101.313 Y86.694 E49.50204
G1 X101.128 Y86.513 E49.51409
G1 X101.007 Y86.285 E49.52611
G1 X100.96 Y86.009 E49.53914
G1 X100.96 Y54.009 E51.0292
G1 X101 Y53.754 E51.04122
M205 X10 Y10
G0 X101.559 Y53.866
M205 X8 Y8
G1 X101.666 Y53.763 E51.04813
G1 X101.8 Y53.729 E51.05457
G1 X108.2 Y53.729 E51.35258
G1 X108.343 Y53.768 E51.35948
G1 X108.446 Y53.875 E51.3664
G1 X108.48 Y54.009 E51.37284
G1 X108.48 Y86.009 E52.86289
G1 X108.441 Y86.152 E52.86979
G1 X108.334 Y86.255 E52.87671
G1 X108.2 Y86.289 E52.88314
G1 X101.8 Y86.289 E53.18116
G1 X101.657 Y86.25 E53.18806
G1 X101.554 Y86.143 E53.19497
G1 X101.52 Y86.009 E53.20141
G1 X101.52 Y54.009 E54.69146
G1 X101.559 Y53.866 E54.69837
M205 X10 Y10
G1 F2400 E51.69837
G0 F1200 X102.654 Y54.863
G0 X107.29 Y85.099
