;FLAVOR:Marlin
;TIME:1050
;Filament used: 0.377536m
;Layer height: 0.1
;Generated with Cura_SteamEngine 4.0.0
M104 S215
M105
M109 S215
M82 ;absolute extrusion mode
G21 ;metric values
G90 ;absolute positioning
M82 ;set extruder to absolute mode
M107 ;start with the fan off
;G28 X0 Y0 ;move X/Y to min endstops
;G28 Z0 ;move Z to min endstops
G1 F50

;G92 E0 ;zero the extruded length
;M83 ;set relative extrution mode
;G1 E2 F600
;G1 X-2.4 Y5
;G1 Z0.1
;G1 E0.0000 F1800
;G1 X105.0 E1.708 F900 ;Suppressd
;G1 X105.0 E4 F900
M82 ;set absolute extrution mode
G92 E0 ;zero the extruded length again

G1 F50
M117 Printing...
;G5
G92 E0
G1 F2400 E-6
;LAYER_COUNT:178
;LAYER:0
M107
M204 S3000
M205 X0 Y0
G0 F600 X99.961 Y98.074 Z0.2
M204 S1800
;TYPE:SKIRT
G1 F2400 E0
G1 F900 X100.283 Y97.815 E0.01924
G1 X101.125 Y97.203 E0.06771
G1 X101.616 Y96.895 E0.0947
G1 X101.914 Y96.751 E0.11011
G1 X102.748 Y96.387 E0.15248
G1 X103.294 Y96.192 E0.17948
G1 X103.861 Y96.074 E0.20645
G1 X104.34 Y96.037 E0.22882
G1 X105.292 Y96.017 E0.27316
G1 X105.87 Y96.045 E0.3001
G1 X106.177 Y96.092 E0.31457
G1 X107.233 Y96.296 E0.36465
G1 X107.792 Y96.445 E0.39158
G1 X108.158 Y96.589 E0.4099
G1 X109.186 Y97.051 E0.46238
G1 X109.696 Y97.324 E0.48931
G1 X110.001 Y97.534 E0.50656
G1 X110.843 Y98.172 E0.55575
G1 X111.404 Y98.684 E0.59111
G1 X111.837 Y99.157 E0.62097
G1 X112.257 Y99.698 E0.65287
G1 X112.79 Y100.515 E0.69829
G1 X113.113 Y101.112 E0.7299
G1 X113.334 Y101.612 E0.75535
G1 X113.565 Y102.279 E0.78822
G1 X113.827 Y103.314 E0.83793
G1 X113.93 Y103.884 E0.8649
G1 X113.954 Y104.252 E0.88208
G1 X113.978 Y105.337 E0.93261
G1 X113.951 Y105.916 E0.9596
G1 X113.851 Y106.459 E0.98531
G1 X113.483 Y107.916 E1.05528
G1 X113.303 Y108.466 E1.08223
G1 X112.98 Y109.101 E1.11541
G1 X112.212 Y110.339 E1.18324
G1 X111.873 Y110.809 E1.21023
G1 X111.473 Y111.228 E1.2372
G1 X110.852 Y111.697 E1.27344
G1 X109.956 Y112.251 E1.32249
G1 X109.27 Y112.593 E1.35818
G1 X108.769 Y112.788 E1.38322
G1 X108.093 Y112.988 E1.41604
G1 X107.131 Y113.186 E1.46178
G1 X106.35 Y113.271 E1.49836
G1 X105.776 Y113.28 E1.52509
G1 X105.106 Y113.237 E1.55635
G1 X103.717 Y113.035 E1.62171
G1 X103.078 Y112.891 E1.65221
G1 X102.223 Y112.626 E1.69389
G1 X101.454 Y112.301 E1.73276
G1 X100.767 Y111.926 E1.76921
G1 X100.113 Y111.484 E1.80597
G1 X99.592 Y111.056 E1.83736
G1 X99.171 Y110.659 E1.86431
G1 X98.97 Y110.424 E1.87871
G1 X98.358 Y109.654 E1.92451
G1 X98.03 Y109.177 E1.95146
G1 X97.818 Y108.769 E1.97287
G1 X97.419 Y107.885 E2.01803
G1 X97.218 Y107.342 E2.04499
G1 X97.112 Y106.894 E2.06643
G1 X96.943 Y105.946 E2.11127
G1 X96.881 Y105.37 E2.13824
G1 X96.882 Y105.017 E2.15468
G1 X96.918 Y104.23 E2.19137
G1 X96.985 Y103.655 E2.21832
G1 X97.093 Y103.208 E2.23973
G1 X97.457 Y102.002 E2.29839
G1 X97.744 Y101.293 E2.33401
G1 X98.407 Y100.006 E2.40142
G1 X98.707 Y99.51 E2.42841
G1 X98.944 Y99.205 E2.4464
G1 X99.555 Y98.488 E2.49026
G1 X99.961 Y98.074 E2.51727
M204 S3000
G0 F600 X100.361 Y98.468
M204 S1800
G1 F900 X100.612 Y98.268 E2.53221
G1 X101.454 Y97.656 E2.58068
G1 X102.138 Y97.264 E2.61739
G1 X102.972 Y96.9 E2.65976
G1 X103.481 Y96.721 E2.68488
G1 X104.01 Y96.62 E2.70996
G1 X104.352 Y96.597 E2.72592
G1 X105.304 Y96.577 E2.77026
G1 X106.07 Y96.642 E2.80606
G1 X107.126 Y96.846 E2.85614
G1 X107.647 Y96.987 E2.88127
G1 X107.928 Y97.1 E2.89537
G1 X108.956 Y97.562 E2.94785
G1 X109.43 Y97.819 E2.97296
G1 X109.662 Y97.981 E2.98614
G1 X110.504 Y98.619 E3.03533
G1 X110.991 Y99.062 E3.06598
G1 X111.424 Y99.535 E3.09584
G1 X111.788 Y100.004 E3.12349
G1 X112.321 Y100.821 E3.16891
G1 X112.601 Y101.338 E3.19629
G1 X112.822 Y101.838 E3.22174
G1 X113.022 Y102.417 E3.25027
G1 X113.284 Y103.452 E3.29998
G1 X113.377 Y103.983 E3.32508
G1 X113.394 Y104.265 E3.33824
G1 X113.418 Y105.35 E3.38877
G1 X113.39 Y105.888 E3.41386
G1 X113.308 Y106.321 E3.43438
G1 X112.94 Y107.778 E3.50435
G1 X112.77 Y108.29 E3.52947
G1 X112.504 Y108.806 E3.55651
G1 X111.736 Y110.044 E3.62434
G1 X111.419 Y110.48 E3.64944
G1 X111.04 Y110.864 E3.67457
G1 X110.557 Y111.221 E3.70253
G1 X109.661 Y111.775 E3.75159
G1 X109.067 Y112.071 E3.78249
G1 X108.566 Y112.266 E3.80752
G1 X107.98 Y112.439 E3.83597
G1 X107.018 Y112.637 E3.88171
G1 X106.341 Y112.712 E3.91342
G1 X105.767 Y112.721 E3.94016
G1 X105.186 Y112.683 E3.96727
G1 X103.797 Y112.481 E4.03263
G1 X103.243 Y112.356 E4.05907
G1 X102.388 Y112.091 E4.10075
G1 X101.722 Y111.809 E4.13443
G1 X101.035 Y111.434 E4.17087
G1 X100.468 Y111.052 E4.20271
G1 X99.947 Y110.624 E4.2341
G1 X99.408 Y110.076 E4.2699
G1 X98.796 Y109.306 E4.3157
G1 X98.493 Y108.86 E4.3408
G1 X98.328 Y108.538 E4.35765
G1 X97.929 Y107.654 E4.40281
G1 X97.744 Y107.148 E4.4279
G1 X97.663 Y106.796 E4.44472
G1 X97.494 Y105.848 E4.48956
G1 X97.442 Y105.043 E4.52712
G1 X97.478 Y104.256 E4.5638
G1 X97.542 Y103.72 E4.58894
G1 X97.629 Y103.37 E4.60573
G1 X97.993 Y102.164 E4.66439
G1 X98.242 Y101.549 E4.69529
G1 X98.905 Y100.262 E4.7627
G1 X99.187 Y99.802 E4.78782
G1 X99.37 Y99.568 E4.80166
G1 X99.981 Y98.851 E4.84552
G1 X100.361 Y98.468 E4.87064
M204 S3000
G0 F600 X100.941 Y98.721
M204 S1800
G1 F900 X101.783 Y98.109 E4.91911
G1 X102.362 Y97.777 E4.95019
G1 X103.196 Y97.413 E4.99256
G1 X103.665 Y97.252 E5.01565
G1 X104.363 Y97.157 E5.04845
G1 X105.315 Y97.137 E5.09279
G1 X105.964 Y97.192 E5.12312
G1 X107.02 Y97.396 E5.1732
G1 X107.699 Y97.611 E5.20637
G1 X108.727 Y98.073 E5.25885
G1 X109.324 Y98.427 E5.29116
G1 X110.166 Y99.065 E5.34036
G1 X110.578 Y99.44 E5.3663
G1 X111.011 Y99.913 E5.39616
G1 X111.319 Y100.31 E5.41955
G1 X111.852 Y101.127 E5.46498
G1 X112.089 Y101.565 E5.48817
G1 X112.31 Y102.065 E5.51362
G1 X112.479 Y102.554 E5.53771
G1 X112.741 Y103.589 E5.58743
G1 X112.834 Y104.277 E5.61975
G1 X112.858 Y105.362 E5.67029
G1 X112.829 Y105.857 E5.69338
G1 X112.765 Y106.184 E5.70889
G1 X112.397 Y107.641 E5.77887
G1 X112.237 Y108.111 E5.80199
G1 X112.028 Y108.511 E5.823
G1 X111.26 Y109.749 E5.89084
G1 X110.966 Y110.148 E5.91392
G1 X110.611 Y110.494 E5.937
G1 X110.263 Y110.745 E5.95698
G1 X109.367 Y111.299 E6.00603
G1 X108.864 Y111.549 E6.03219
G1 X108.363 Y111.744 E6.05722
G1 X107.867 Y111.891 E6.08131
G1 X106.905 Y112.089 E6.12704
G1 X106.332 Y112.152 E6.15388
G1 X105.758 Y112.161 E6.18062
G1 X105.267 Y112.129 E6.20353
G1 X103.878 Y111.927 E6.26889
G1 X103.409 Y111.821 E6.29127
G1 X102.554 Y111.556 E6.33296
G1 X101.99 Y111.317 E6.36148
G1 X101.303 Y110.942 E6.39792
G1 X100.824 Y110.619 E6.42482
G1 X100.303 Y110.191 E6.45622
G1 X99.847 Y109.727 E6.48651
G1 X99.235 Y108.957 E6.53231
G1 X98.958 Y108.546 E6.55539
G1 X98.839 Y108.308 E6.56778
G1 X98.44 Y107.424 E6.61294
G1 X98.273 Y106.957 E6.63604
G1 X98.215 Y106.698 E6.6484
G1 X98.046 Y105.75 E6.69324
G1 X98.001 Y105.068 E6.72506
G1 X98.037 Y104.281 E6.76175
G1 X98.1 Y103.789 E6.78484
G1 X98.165 Y103.532 E6.79719
G1 X98.529 Y102.326 E6.85585
G1 X98.74 Y101.805 E6.88202
G1 X99.403 Y100.518 E6.94943
G1 X99.797 Y99.931 E6.98235
G1 X100.408 Y99.214 E7.02622
G1 X100.941 Y98.721 E7.06002
M204 S3000
G0 F600 X101.27 Y99.174
M204 S1800
G1 F900 X102.112 Y98.562 E7.10849
G1 X102.586 Y98.29 E7.13394
G1 X103.42 Y97.926 E7.17631
G1 X103.845 Y97.784 E7.19718
G1 X104.375 Y97.717 E7.22205
G1 X105.327 Y97.697 E7.26639
G1 X105.858 Y97.742 E7.29121
G1 X106.914 Y97.946 E7.34129
G1 X107.469 Y98.121 E7.36838
G1 X108.497 Y98.583 E7.42086
G1 X108.986 Y98.873 E7.44734
G1 X109.828 Y99.511 E7.49653
G1 X110.165 Y99.818 E7.51776
G1 X110.598 Y100.291 E7.54762
G1 X110.85 Y100.616 E7.56677
G1 X111.383 Y101.433 E7.61219
G1 X111.577 Y101.791 E7.63115
G1 X111.798 Y102.291 E7.6566
G1 X111.936 Y102.692 E7.67635
G1 X112.198 Y103.727 E7.72606
G1 X112.274 Y104.289 E7.75247
G1 X112.298 Y105.374 E7.80301
G1 X112.268 Y105.822 E7.82391
G1 X112.222 Y106.047 E7.83461
G1 X111.854 Y107.504 E7.90458
G1 X111.706 Y107.928 E7.92549
G1 X111.552 Y108.215 E7.94066
G1 X110.784 Y109.453 E8.0085
G1 X110.515 Y109.812 E8.02939
G1 X110.186 Y110.117 E8.05028
G1 X109.968 Y110.268 E8.06262
G1 X109.072 Y110.822 E8.11168
G1 X108.661 Y111.027 E8.13306
G1 X108.16 Y111.222 E8.1581
G1 X107.754 Y111.342 E8.17781
G1 X106.792 Y111.54 E8.22354
G1 X106.324 Y111.592 E8.24547
G1 X105.75 Y111.601 E8.2722
G1 X105.347 Y111.575 E8.29101
G1 X103.958 Y111.373 E8.35636
G1 X103.575 Y111.286 E8.37465
G1 X102.72 Y111.021 E8.41633
G1 X102.259 Y110.826 E8.43964
G1 X101.572 Y110.451 E8.47609
G1 X101.179 Y110.186 E8.49816
G1 X100.658 Y109.758 E8.52955
G1 X100.285 Y109.379 E8.55431
G1 X99.673 Y108.609 E8.60011
G1 X99.349 Y108.078 E8.62908
G1 X98.95 Y107.194 E8.67424
G1 X98.766 Y106.599 E8.70324
G1 X98.597 Y105.651 E8.74808
G1 X98.561 Y105.094 E8.77407
G1 X98.597 Y104.307 E8.81075
G1 X98.701 Y103.694 E8.83971
G1 X99.065 Y102.488 E8.89836
G1 X99.238 Y102.062 E8.91977
G1 X99.901 Y100.775 E8.98719
G1 X100.223 Y100.295 E9.0141
G1 X100.834 Y99.578 E9.05797
G1 X101.27 Y99.174 E9.08564
M204 S3000
G0 F600 X101.6 Y99.627
M204 S1800
G1 F900 X102.442 Y99.015 E9.13411
G1 X102.81 Y98.804 E9.15386
G1 X103.644 Y98.44 E9.19624
G1 X104.021 Y98.319 E9.21467
G1 X104.387 Y98.276 E9.23183
G1 X105.339 Y98.256 E9.27617
G1 X105.752 Y98.292 E9.29548
G1 X106.808 Y98.496 E9.34556
G1 X107.239 Y98.632 E9.3666
G1 X108.267 Y99.094 E9.41908
G1 X108.648 Y99.32 E9.43971
G1 X109.49 Y99.958 E9.4889
G1 X109.752 Y100.197 E9.50541
G1 X110.185 Y100.67 E9.53527
G1 X110.381 Y100.922 E9.55014
G1 X110.914 Y101.739 E9.59556
G1 X111.065 Y102.018 E9.61033
G1 X111.286 Y102.518 E9.63579
G1 X111.393 Y102.829 E9.6511
G1 X111.655 Y103.864 E9.70082
G1 X111.715 Y104.302 E9.7214
G1 X111.739 Y105.387 E9.77194
G1 X111.679 Y105.91 E9.79645
G1 X111.311 Y107.367 E9.86642
G1 X111.176 Y107.739 E9.88485
G1 X111.077 Y107.92 E9.89446
G1 X110.309 Y109.158 E9.9623
G1 X110.067 Y109.472 E9.98076
G1 X109.674 Y109.792 E10.00435
G1 X108.778 Y110.346 E10.05341
G1 X108.458 Y110.506 E10.07007
G1 X107.957 Y110.701 E10.0951
G1 X107.641 Y110.794 E10.11044
G1 X106.679 Y110.992 E10.15617
G1 X106.315 Y111.032 E10.17322
G1 X105.741 Y111.041 E10.19995
G1 X105.428 Y111.021 E10.21456
G1 X104.039 Y110.819 E10.27992
G1 X103.741 Y110.751 E10.29415
G1 X102.886 Y110.486 E10.33583
G1 X102.527 Y110.334 E10.35398
G1 X101.84 Y109.959 E10.39043
G1 X101.535 Y109.753 E10.40757
G1 X101.014 Y109.325 E10.43896
G1 X100.724 Y109.031 E10.45819
G1 X100.112 Y108.261 E10.50399
G1 X99.86 Y107.847 E10.52656
G1 X99.461 Y106.963 E10.57172
G1 X99.317 Y106.501 E10.59426
G1 X99.148 Y105.553 E10.63909
G1 X99.12 Y105.119 E10.65934
G1 X99.156 Y104.332 E10.69603
G1 X99.238 Y103.856 E10.71852
G1 X99.602 Y102.65 E10.77718
G1 X99.736 Y102.318 E10.79385
G1 X100.399 Y101.031 E10.86126
G1 X100.649 Y100.658 E10.88217
G1 X101.26 Y99.941 E10.92604
G1 X101.6 Y99.627 E10.94759
M204 S3000
G0 F600 X101.929 Y100.08
M204 S1800
G1 F900 X102.771 Y99.468 E10.99606
G1 X103.034 Y99.317 E11.01018
G1 X103.868 Y98.953 E11.05255
G1 X104.188 Y98.857 E11.06811
G1 X104.399 Y98.836 E11.07798
G1 X105.351 Y98.816 E11.12232
G1 X105.646 Y98.841 E11.1361
G1 X106.702 Y99.045 E11.18618
G1 X107.01 Y99.143 E11.20124
G1 X108.038 Y99.605 E11.25371
G1 X108.31 Y99.766 E11.26843
G1 X109.152 Y100.404 E11.31762
G1 X109.339 Y100.575 E11.32942
G1 X109.772 Y101.048 E11.35928
G1 X109.912 Y101.228 E11.3699
G1 X110.445 Y102.045 E11.41532
G1 X110.552 Y102.244 E11.42584
G1 X110.773 Y102.744 E11.4513
G1 X110.85 Y102.966 E11.46224
G1 X111.112 Y104.001 E11.51196
G1 X111.155 Y104.314 E11.52667
G1 X111.179 Y105.399 E11.5772
G1 X111.136 Y105.773 E11.59473
G1 X110.768 Y107.23 E11.66471
G1 X110.601 Y107.625 E11.68467
G1 X109.833 Y108.863 E11.75251
G1 X109.624 Y109.124 E11.76808
G1 X109.379 Y109.316 E11.78258
G1 X108.483 Y109.87 E11.83163
G1 X108.255 Y109.984 E11.8435
G1 X107.754 Y110.179 E11.86853
G1 X107.528 Y110.245 E11.8795
G1 X106.566 Y110.443 E11.92523
G1 X106.306 Y110.472 E11.93741
G1 X105.732 Y110.481 E11.96414
G1 X105.509 Y110.466 E11.97455
G1 X104.12 Y110.264 E12.03991
G1 X103.907 Y110.216 E12.05007
G1 X103.052 Y109.951 E12.09175
G1 X102.795 Y109.843 E12.10474
G1 X102.108 Y109.468 E12.14118
G1 X101.89 Y109.321 E12.15342
G1 X101.369 Y108.893 E12.18482
G1 X101.162 Y108.682 E12.19858
G1 X100.55 Y107.912 E12.24438
G1 X100.37 Y107.617 E12.26048
G1 X99.971 Y106.733 E12.30564
G1 X99.869 Y106.403 E12.32172
G1 X99.7 Y105.455 E12.36656
G1 X99.679 Y105.145 E12.38103
G1 X99.715 Y104.358 E12.41771
G1 X99.774 Y104.017 E12.43383
G1 X100.138 Y102.811 E12.49248
G1 X100.233 Y102.575 E12.50433
G1 X100.896 Y101.288 E12.57174
G1 X101.075 Y101.021 E12.58671
G1 X101.686 Y100.304 E12.63058
G1 X101.929 Y100.08 E12.64596
M204 S3000
G0 F600 X102.258 Y100.533
M204 S1800
G1 F900 X103.1 Y99.921 E12.69443
G1 X103.258 Y99.83 E12.70292
G1 X104.092 Y99.466 E12.7453
G1 X104.41 Y99.396 E12.76046
G1 X105.362 Y99.376 E12.8048
G1 X105.539 Y99.391 E12.81307
G1 X106.595 Y99.595 E12.86315
G1 X106.78 Y99.654 E12.87219
G1 X107.808 Y100.116 E12.92467
G1 X107.971 Y100.212 E12.93348
G1 X108.813 Y100.85 E12.98267
G1 X108.926 Y100.953 E12.98979
G1 X109.359 Y101.426 E13.01965
G1 X109.443 Y101.534 E13.02602
G1 X109.976 Y102.351 E13.07144
G1 X110.04 Y102.47 E13.07774
G1 X110.261 Y102.97 E13.10319
G1 X110.307 Y103.104 E13.10979
G1 X110.569 Y104.139 E13.1595
G1 X110.595 Y104.326 E13.16829
G1 X110.619 Y105.411 E13.21883
G1 X110.593 Y105.636 E13.22937
G1 X110.225 Y107.093 E13.29935
G1 X110.125 Y107.33 E13.31133
G1 X109.357 Y108.568 E13.37916
G1 X109.085 Y108.839 E13.39704
G1 X108.189 Y109.393 E13.4461
G1 X108.052 Y109.462 E13.45324
G1 X107.551 Y109.657 E13.47827
G1 X107.415 Y109.697 E13.48487
G1 X106.453 Y109.895 E13.53061
G1 X106.297 Y109.912 E13.53791
G1 X105.723 Y109.921 E13.56464
G1 X105.589 Y109.912 E13.5709
G1 X104.2 Y109.71 E13.63626
G1 X104.072 Y109.681 E13.64237
G1 X103.217 Y109.416 E13.68405
G1 X103.064 Y109.351 E13.69179
G1 X102.377 Y108.976 E13.72823
G1 X102.246 Y108.888 E13.73558
G1 X101.725 Y108.46 E13.76698
G1 X101.6 Y108.334 E13.77524
G1 X100.988 Y107.564 E13.82104
G1 X100.88 Y107.387 E13.8307
G1 X100.481 Y106.503 E13.87586
G1 X100.42 Y106.304 E13.88555
G1 X100.251 Y105.356 E13.93039
G1 X100.239 Y105.171 E13.93902
G1 X100.275 Y104.384 E13.97571
G1 X100.31 Y104.179 E13.98539
G1 X100.674 Y102.973 E14.04405
G1 X100.731 Y102.831 E14.05117
G1 X101.394 Y101.544 E14.11859
G1 X101.502 Y101.384 E14.12758
G1 X102.113 Y100.667 E14.17144
G1 X102.258 Y100.533 E14.18063
M204 S3000
G0 F600 X102.587 Y100.986
M204 S1800
G1 F900 X103.429 Y100.374 E14.2291
G1 X103.482 Y100.343 E14.23196
G1 X104.316 Y99.979 E14.27433
G1 X104.422 Y99.956 E14.27939
G1 X105.374 Y99.936 E14.32372
G1 X105.433 Y99.941 E14.32648
G1 X106.489 Y100.145 E14.37656
G1 X106.551 Y100.165 E14.3796
G1 X107.579 Y100.627 E14.43208
G1 X107.633 Y100.659 E14.435
G1 X108.475 Y101.297 E14.48419
G1 X108.513 Y101.331 E14.48656
G1 X108.946 Y101.804 E14.51642
G1 X108.974 Y101.84 E14.51855
G1 X109.507 Y102.657 E14.56397
G1 X109.528 Y102.697 E14.56607
G1 X109.749 Y103.197 E14.59153
G1 X109.764 Y103.241 E14.59369
G1 X110.026 Y104.276 E14.64341
G1 X110.035 Y104.339 E14.64637
G1 X110.059 Y105.424 E14.6969
G1 X110.05 Y105.499 E14.70042
G1 X109.682 Y106.956 E14.7704
G1 X109.649 Y107.035 E14.77438
G1 X108.881 Y108.273 E14.84222
G1 X108.79 Y108.363 E14.84818
G1 X107.894 Y108.917 E14.89723
G1 X107.849 Y108.94 E14.89959
G1 X107.348 Y109.135 E14.92462
G1 X107.302 Y109.148 E14.92685
G1 X106.34 Y109.346 E14.97258
G1 X106.288 Y109.352 E14.97502
G1 X105.714 Y109.361 E15.00175
G1 X105.67 Y109.358 E15.0038
G1 X104.281 Y109.156 E15.06916
G1 X104.238 Y109.146 E15.07122
G1 X103.383 Y108.881 E15.1129
G1 X103.332 Y108.86 E15.11546
G1 X102.645 Y108.485 E15.15191
G1 X102.601 Y108.455 E15.15439
G1 X102.08 Y108.027 E15.18579
G1 X102.039 Y107.985 E15.18852
G1 X101.427 Y107.215 E15.23432
G1 X101.391 Y107.156 E15.23754
G1 X100.992 Y106.272 E15.2827
G1 X100.971 Y106.206 E15.28592
G1 X100.802 Y105.258 E15.33076
G1 X100.798 Y105.196 E15.33366
G1 X100.834 Y104.409 E15.37034
G1 X100.846 Y104.341 E15.37355
G1 X101.21 Y103.135 E15.43221
G1 X101.229 Y103.088 E15.43457
G1 X101.892 Y101.801 E15.50199
G1 X101.928 Y101.747 E15.50501
G1 X102.539 Y101.03 E15.54887
G1 X102.587 Y100.986 E15.55191
M204 S3000
G1 F2400 E9.55191
;MESH:Gear_E_6.STL
G0 F600 X103.087 Y102.104
