;FLAVOR:Marlin
;TIME:1280
;Filament used: 0.764758m
;Layer height: 0.1
;Generated with Cura_SteamEngine 3.5.1
M140 S60
M105
M190 S60
M104 S215
M105
M109 S215
M82 ;absolute extrusion mode
G21 ;metric values
G90 ;absolute positioning
M82 ;set extruder to absolute mode
M107 ;start with the fan off
G28 X0 Y0 ;move X/Y to min endstops
G28 Z0 ;move Z to min endstops
; G1 Z15.0 F60 ;move the platform down 15mm
G92 E0 ;zero the extruded length
G1 F200 E3 ;extrude 3mm of feed stock
G92 E0 ;zero the extruded length again
G1 Y5 Z0.4
G1 X110 F1200
G1 F60
M117 Printing...
G5
G92 E0
G1 F2400 E-6
;LAYER_COUNT:102
;LAYER:0
M107
M204 S3000
M205 X10 Y10
G0 F1200 X78.939 Y91.187 Z0.2
M205 X8 Y8
;TYPE:SKIRT
G1 F2400 E0
G1 F1200 X79.605 Y90.647 E0.03992
G1 X80.319 Y90.171 E0.07988
G1 X81.074 Y89.764 E0.11982
G1 X81.864 Y89.429 E0.15978
G1 X82.681 Y89.169 E0.1997
G1 X83.519 Y88.987 E0.23963
G1 X84.37 Y88.883 E0.27955
G1 X85.032 Y88.857 E0.3104
G1 X118.815 Y88.761 E1.88349
G1 X119.672 Y88.799 E1.92343
G1 X120.521 Y88.916 E1.96334
G1 X121.193 Y89.067 E1.99541
G1 X122.91 Y89.521 E2.07811
G1 X123.728 Y89.778 E2.11803
G1 X124.782 Y90.242 E2.17166
G1 X125.676 Y90.704 E2.21851
G1 X126.361 Y91.096 E2.25526
G1 X127.87 Y92.048 E2.33834
G1 X128.573 Y92.539 E2.37827
G1 X129.228 Y93.093 E2.41822
G1 X129.828 Y93.706 E2.45816
G1 X130.452 Y94.489 E2.50478
G1 X131.599 Y96.098 E2.59679
G1 X132.055 Y96.803 E2.63589
G1 X132.749 Y97.993 E2.70003
G1 X133.146 Y98.753 E2.73996
G1 X133.471 Y99.547 E2.77991
G1 X133.72 Y100.368 E2.81986
G1 X133.91 Y101.333 E2.86565
G1 X134.147 Y103 E2.94406
G1 X134.228 Y103.854 E2.984
G1 X134.235 Y104.568 E3.01725
G1 X134.154 Y107.294 E3.14424
G1 X134.089 Y108.149 E3.18417
G1 X133.944 Y108.995 E3.22414
G1 X133.721 Y109.823 E3.26406
G1 X133.56 Y110.283 E3.28676
G1 X133.144 Y111.38 E3.34139
G1 X132.803 Y112.167 E3.38133
G1 X132.448 Y112.824 E3.4161
G1 X131.726 Y114.037 E3.48183
G1 X131.253 Y114.752 E3.52175
G1 X130.716 Y115.421 E3.5617
G1 X130.119 Y116.037 E3.60164
G1 X129.517 Y116.555 E3.63862
G1 X127.213 Y118.372 E3.77525
G1 X126.515 Y118.871 E3.8152
G1 X125.775 Y119.303 E3.8551
G1 X124.997 Y119.664 E3.89504
G1 X124.583 Y119.822 E3.91567
G1 X122.326 Y120.62 E4.02715
G1 X121.505 Y120.868 E4.06708
G1 X120.338 Y121.083 E4.12234
G1 X119.601 Y121.17 E4.15689
G1 X118.515 Y121.233 E4.20755
G1 X108.217 Y121.225 E4.68706
G1 X108.074 Y121.224 E4.69372
G1 X101.45 Y121.116 E5.0022
G1 X99.646 Y121.179 E5.08626
G1 X99.322 Y121.185 E5.10135
G1 X85.092 Y121.184 E5.76396
G1 X84.236 Y121.144 E5.80386
G1 X83.386 Y121.024 E5.84383
G1 X82.552 Y120.826 E5.88374
G1 X81.74 Y120.551 E5.92366
G1 X80.956 Y120.202 E5.96362
G1 X80.209 Y119.781 E6.00355
G1 X79.504 Y119.292 E6.0435
G1 X78.621 Y118.522 E6.09806
G1 X78.322 Y118.226 E6.11765
G1 X77.741 Y117.595 E6.15759
G1 X77.221 Y116.912 E6.19756
G1 X76.768 Y116.185 E6.23745
G1 X76.384 Y115.418 E6.27739
G1 X76.073 Y114.618 E6.31735
G1 X75.838 Y113.793 E6.3573
G1 X75.681 Y112.95 E6.39723
G1 X75.603 Y112.096 E6.43716
G1 X75.595 Y111.525 E6.46375
G1 X75.735 Y103.66 E6.83003
G1 X75.603 Y98.572 E7.06703
G1 X75.621 Y97.714 E7.10699
G1 X75.718 Y96.862 E7.14692
G1 X75.895 Y96.023 E7.18685
G1 X76.149 Y95.204 E7.22678
G1 X76.478 Y94.412 E7.26671
G1 X76.879 Y93.654 E7.30664
G1 X77.35 Y92.937 E7.34659
G1 X78.068 Y92.064 E7.39922
G1 X78.326 Y91.787 E7.41685
G1 X78.939 Y91.187 E7.45679
M205 X10 Y10
G0 X79.331 Y91.588
M205 X8 Y8
G1 X79.979 Y91.068 E7.49547
G1 X80.674 Y90.612 E7.53418
G1 X81.409 Y90.225 E7.57286
G1 X82.179 Y89.911 E7.61158
G1 X82.975 Y89.672 E7.65028
G1 X83.79 Y89.511 E7.68896
G1 X84.617 Y89.428 E7.72767
G1 X85.033 Y89.417 E7.74704
G1 X118.816 Y89.321 E9.32013
G1 X119.647 Y89.359 E9.35886
G1 X120.47 Y89.476 E9.39757
G1 X121.05 Y89.608 E9.42527
G1 X122.767 Y90.062 E9.50797
G1 X123.559 Y90.313 E9.54665
G1 X124.525 Y90.739 E9.59581
G1 X125.419 Y91.201 E9.64267
G1 X126.062 Y91.57 E9.67719
G1 X127.571 Y92.522 E9.76027
G1 X128.252 Y92.998 E9.79896
G1 X128.884 Y93.538 E9.83767
G1 X129.461 Y94.137 E9.8764
G1 X129.996 Y94.814 E9.91658
G1 X131.143 Y96.423 E10.00859
G1 X131.572 Y97.085 E10.04532
G1 X132.266 Y98.275 E10.10946
G1 X132.649 Y99.013 E10.14818
G1 X132.96 Y99.783 E10.18685
G1 X133.196 Y100.58 E10.22555
G1 X133.356 Y101.412 E10.26501
G1 X133.593 Y103.079 E10.34341
G1 X133.67 Y103.906 E10.38208
G1 X133.675 Y104.552 E10.41216
G1 X133.594 Y107.278 E10.53915
G1 X133.53 Y108.106 E10.57782
G1 X133.386 Y108.925 E10.61655
G1 X133.037 Y110.085 E10.67295
G1 X132.621 Y111.182 E10.72758
G1 X132.289 Y111.944 E10.76629
G1 X131.966 Y112.537 E10.79773
G1 X131.244 Y113.75 E10.86346
G1 X130.785 Y114.443 E10.90216
G1 X130.262 Y115.089 E10.94087
G1 X129.679 Y115.681 E10.97956
G1 X129.17 Y116.115 E11.0107
G1 X126.866 Y117.932 E11.14734
G1 X126.19 Y118.415 E11.18602
G1 X125.47 Y118.83 E11.22472
G1 X124.396 Y119.294 E11.2792
G1 X122.139 Y120.092 E11.39067
G1 X121.343 Y120.331 E11.42937
G1 X120.272 Y120.526 E11.48006
G1 X119.535 Y120.613 E11.51461
G1 X118.515 Y120.673 E11.56219
G1 X108.217 Y120.665 E12.04171
G1 X108.083 Y120.664 E12.04795
G1 X101.459 Y120.556 E12.35643
G1 X99.626 Y120.62 E12.44183
G1 X99.322 Y120.625 E12.45599
G1 X85.092 Y120.624 E13.1186
G1 X84.262 Y120.584 E13.15729
G1 X83.44 Y120.464 E13.19598
G1 X82.633 Y120.266 E13.23467
G1 X81.848 Y119.992 E13.27338
G1 X81.094 Y119.643 E13.31207
G1 X80.376 Y119.223 E13.3508
G1 X79.703 Y118.736 E13.38949
G1 X79.014 Y118.124 E13.4324
G1 X78.715 Y117.828 E13.45199
G1 X78.154 Y117.216 E13.49065
G1 X77.653 Y116.552 E13.52938
G1 X77.219 Y115.843 E13.56809
G1 X76.855 Y115.096 E13.60678
G1 X76.564 Y114.318 E13.64546
G1 X76.349 Y113.515 E13.68417
G1 X76.213 Y112.695 E13.72287
G1 X76.155 Y111.535 E13.77695
G1 X76.295 Y103.655 E14.14394
G1 X76.163 Y98.557 E14.3814
G1 X76.181 Y97.726 E14.4201
G1 X76.28 Y96.901 E14.4588
G1 X76.457 Y96.089 E14.49749
G1 X76.711 Y95.298 E14.53618
G1 X77.04 Y94.535 E14.57487
G1 X77.441 Y93.807 E14.61357
G1 X77.91 Y93.12 E14.6523
G1 X78.478 Y92.445 E14.69338
G1 X78.736 Y92.168 E14.71101
G1 X79.331 Y91.588 E14.7497
M205 X10 Y10
G0 X79.722 Y91.99
M205 X8 Y8
G1 X80.351 Y91.49 E14.78711
G1 X81.027 Y91.054 E14.82457
G1 X81.742 Y90.689 E14.86195
G1 X82.491 Y90.396 E14.8994
G1 X83.265 Y90.179 E14.93683
G1 X84.056 Y90.039 E14.97424
G1 X85.035 Y89.977 E15.01991
G1 X118.818 Y89.881 E16.593
G1 X119.621 Y89.919 E16.63043
G1 X120.416 Y90.036 E16.66785
G1 X120.906 Y90.149 E16.69126
G1 X122.623 Y90.603 E16.77396
G1 X123.389 Y90.847 E16.8114
G1 X124.268 Y91.237 E16.85617
G1 X125.162 Y91.699 E16.90303
G1 X125.763 Y92.043 E16.93528
G1 X127.272 Y92.995 E17.01836
G1 X127.93 Y93.457 E17.05579
G1 X128.538 Y93.983 E17.09323
G1 X129.092 Y94.566 E17.13068
G1 X129.54 Y95.139 E17.16455
G1 X130.687 Y96.748 E17.25656
G1 X131.088 Y97.367 E17.2909
G1 X131.782 Y98.557 E17.35505
G1 X132.152 Y99.271 E17.39249
G1 X132.449 Y100.018 E17.42992
G1 X132.67 Y100.79 E17.46732
G1 X132.802 Y101.491 E17.50053
G1 X133.039 Y103.158 E17.57893
G1 X133.112 Y103.958 E17.61634
G1 X133.115 Y104.535 E17.64321
G1 X133.034 Y107.261 E17.7702
G1 X132.971 Y108.062 E17.80761
G1 X132.828 Y108.853 E17.84504
G1 X132.513 Y109.886 E17.89533
G1 X132.097 Y110.983 E17.94996
G1 X131.775 Y111.719 E17.98737
G1 X131.485 Y112.251 E18.01558
G1 X130.763 Y113.464 E18.08131
G1 X130.318 Y114.133 E18.11872
G1 X129.809 Y114.755 E18.15615
G1 X129.24 Y115.323 E18.19358
G1 X128.823 Y115.675 E18.21899
G1 X126.519 Y117.492 E18.35563
G1 X125.864 Y117.958 E18.39306
G1 X125.166 Y118.356 E18.43047
G1 X124.209 Y118.766 E18.47895
G1 X121.952 Y119.564 E18.59042
G1 X121.182 Y119.794 E18.62784
G1 X120.206 Y119.97 E18.67402
G1 X119.469 Y120.057 E18.70858
G1 X118.516 Y120.113 E18.75303
G1 X108.218 Y120.105 E19.23255
G1 X108.092 Y120.104 E19.23841
G1 X101.448 Y119.995 E19.54783
G1 X99.606 Y120.06 E19.63365
G1 X99.322 Y120.065 E19.64688
G1 X85.092 Y120.064 E20.30949
G1 X84.29 Y120.024 E20.34688
G1 X83.495 Y119.904 E20.38432
G1 X82.716 Y119.706 E20.42174
G1 X81.96 Y119.432 E20.45919
G1 X81.236 Y119.084 E20.49659
G1 X80.55 Y118.666 E20.534
G1 X79.908 Y118.181 E20.57146
G1 X79.408 Y117.726 E20.60294
G1 X79.109 Y117.43 E20.62253
G1 X78.567 Y116.837 E20.65994
G1 X78.086 Y116.193 E20.69737
G1 X77.672 Y115.504 E20.7348
G1 X77.328 Y114.778 E20.77221
G1 X77.058 Y114.021 E20.80963
G1 X76.865 Y113.241 E20.84705
G1 X76.75 Y112.445 E20.8845
G1 X76.715 Y111.545 E20.92644
G1 X76.855 Y103.631 E21.295
G1 X76.723 Y98.543 E21.532
G1 X76.742 Y97.739 E21.56945
G1 X76.841 Y96.942 E21.60685
G1 X77.019 Y96.158 E21.64428
G1 X77.273 Y95.396 E21.68168
G1 X77.602 Y94.662 E21.71914
G1 X78.003 Y93.965 E21.75658
G1 X78.47 Y93.312 E21.79396
G1 X78.887 Y92.827 E21.82375
G1 X79.145 Y92.55 E21.84137
G1 X79.722 Y91.99 E21.87881
M205 X10 Y10
G0 X80.112 Y92.392
M205 X8 Y8
G1 X80.722 Y91.913 E21.91493
G1 X81.377 Y91.499 E21.95101
G1 X82.072 Y91.155 E21.98712
G1 X82.799 Y90.884 E22.02325
G1 X83.549 Y90.69 E22.05932
G1 X84.316 Y90.574 E22.09544
G1 X85.037 Y90.537 E22.12906
G1 X118.82 Y90.441 E23.70214
G1 X119.594 Y90.479 E23.73823
G1 X120.361 Y90.596 E23.77435
G1 X120.763 Y90.691 E23.79359
G1 X122.48 Y91.145 E23.87629
G1 X123.219 Y91.381 E23.91241
G1 X124.01 Y91.734 E23.95274
G1 X124.904 Y92.196 E23.9996
G1 X125.464 Y92.517 E24.02966
G1 X126.973 Y93.469 E24.11274
G1 X127.607 Y93.916 E24.14886
G1 X128.191 Y94.426 E24.18496
G1 X128.72 Y94.993 E24.22107
G1 X129.084 Y95.464 E24.24879
G1 X130.231 Y97.073 E24.3408
G1 X130.604 Y97.65 E24.37279
G1 X131.298 Y98.84 E24.43694
G1 X131.654 Y99.529 E24.47305
G1 X131.936 Y100.251 E24.50914
G1 X132.143 Y100.998 E24.54524
G1 X132.247 Y101.57 E24.57231
G1 X132.484 Y103.237 E24.65071
G1 X132.554 Y104.009 E24.68681
G1 X132.556 Y104.518 E24.71051
G1 X132.475 Y107.244 E24.8375
G1 X132.412 Y108.017 E24.87361
G1 X132.27 Y108.779 E24.9097
G1 X131.989 Y109.687 E24.95396
G1 X131.573 Y110.784 E25.00859
G1 X131.261 Y111.494 E25.0447
G1 X131.004 Y111.964 E25.06965
G1 X130.282 Y113.177 E25.13538
G1 X129.852 Y113.822 E25.17147
G1 X129.357 Y114.419 E25.20759
G1 X128.804 Y114.963 E25.24371
G1 X128.477 Y115.236 E25.26354
G1 X126.173 Y117.053 E25.40017
G1 X125.54 Y117.501 E25.43628
G1 X124.864 Y117.881 E25.47239
G1 X124.023 Y118.238 E25.51494
G1 X121.766 Y119.036 E25.62641
G1 X121.022 Y119.256 E25.66253
G1 X120.141 Y119.414 E25.70421
G1 X119.404 Y119.501 E25.73877
G1 X118.516 Y119.553 E25.78019
G1 X108.218 Y119.545 E26.25971
G1 X108.101 Y119.544 E26.26515
G1 X101.438 Y119.435 E26.57545
G1 X99.587 Y119.5 E26.6617
G1 X99.322 Y119.505 E26.67404
G1 X85.092 Y119.504 E27.33665
G1 X84.318 Y119.464 E27.37273
G1 X83.552 Y119.344 E27.40884
G1 X82.802 Y119.147 E27.44495
G1 X82.077 Y118.873 E27.48104
G1 X81.384 Y118.525 E27.51714
G1 X80.73 Y118.109 E27.55324
G1 X80.122 Y117.627 E27.58936
G1 X79.802 Y117.328 E27.60976
G1 X79.503 Y117.032 E27.62935
G1 X78.981 Y116.459 E27.66544
G1 X78.521 Y115.835 E27.70154
G1 X78.127 Y115.167 E27.73765
G1 X77.804 Y114.462 E27.77376
G1 X77.556 Y113.728 E27.80984
G1 X77.384 Y112.972 E27.84594
G1 X77.292 Y112.202 E27.88205
G1 X77.275 Y111.555 E27.91219
G1 X77.415 Y103.646 E28.28052
G1 X77.283 Y98.528 E28.51891
G1 X77.302 Y97.753 E28.55501
G1 X77.402 Y96.984 E28.59112
G1 X77.58 Y96.23 E28.6272
G1 X77.835 Y95.498 E28.66329
G1 X78.165 Y94.795 E28.69945
G1 X78.564 Y94.131 E28.73552
G1 X79.03 Y93.511 E28.77164
G1 X79.297 Y93.209 E28.79041
G1 X79.555 Y92.932 E28.80804
G1 X80.112 Y92.392 E28.84416
M205 X10 Y10
G0 X80.502 Y92.796
M205 X8 Y8
G1 X81.091 Y92.338 E28.8789
G1 X81.726 Y91.946 E28.91365
G1 X82.399 Y91.625 E28.94837
G1 X83.103 Y91.377 E28.98313
G1 X83.829 Y91.206 E29.01786
G1 X84.569 Y91.114 E29.05258
G1 X85.038 Y91.097 E29.07443
G1 X118.821 Y91.001 E30.64752
G1 X119.566 Y91.039 E30.68225
G1 X120.62 Y91.232 E30.73215
G1 X122.337 Y91.686 E30.81484
G1 X123.047 Y91.915 E30.84958
G1 X123.753 Y92.232 E30.88562
G1 X124.647 Y92.694 E30.93248
G1 X125.166 Y92.991 E30.96032
G1 X126.675 Y93.943 E31.0434
G1 X127.283 Y94.374 E31.0781
G1 X127.842 Y94.868 E31.11284
G1 X128.345 Y95.419 E31.14758
G1 X128.628 Y95.789 E31.16927
G1 X129.775 Y97.398 E31.26128
G1 X130.12 Y97.932 E31.29088
G1 X130.814 Y99.122 E31.35503
G1 X131.155 Y99.785 E31.38975
G1 X131.423 Y100.481 E31.42447
G1 X131.614 Y101.202 E31.45921
G1 X131.693 Y101.648 E31.4803
G1 X131.93 Y103.315 E31.5587
G1 X131.995 Y104.058 E31.59343
G1 X131.996 Y104.502 E31.6141
G1 X131.915 Y107.228 E31.74109
G1 X131.853 Y107.971 E31.77581
G1 X131.712 Y108.703 E31.81052
G1 X131.466 Y109.489 E31.84887
G1 X131.05 Y110.586 E31.9035
G1 X130.748 Y111.268 E31.93823
G1 X130.523 Y111.678 E31.96001
G1 X129.801 Y112.891 E32.02574
G1 X129.385 Y113.51 E32.06047
G1 X128.906 Y114.082 E32.09521
G1 X128.13 Y114.796 E32.14431
G1 X125.826 Y116.613 E32.28094
G1 X125.216 Y117.043 E32.3157
G1 X124.564 Y117.405 E32.35042
G1 X123.836 Y117.71 E32.38717
G1 X121.579 Y118.508 E32.49864
G1 X120.864 Y118.719 E32.53336
G1 X120.075 Y118.858 E32.57066
G1 X119.338 Y118.945 E32.60522
G1 X118.517 Y118.993 E32.64351
G1 X108.219 Y118.985 E33.12303
G1 X108.11 Y118.984 E33.12811
G1 X101.447 Y118.875 E33.43841
G1 X99.567 Y118.941 E33.526
G1 X99.323 Y118.945 E33.53736
G1 X85.093 Y118.944 E34.19997
G1 X84.348 Y118.904 E34.23471
G1 X83.611 Y118.784 E34.26948
G1 X82.892 Y118.587 E34.3042
G1 X82.198 Y118.313 E34.33894
G1 X81.537 Y117.967 E34.37368
G1 X80.917 Y117.552 E34.40842
G1 X80.196 Y116.93 E34.45276
G1 X79.897 Y116.634 E34.47235
G1 X79.396 Y116.082 E34.50706
G1 X78.957 Y115.479 E34.54179
G1 X78.585 Y114.832 E34.57654
G1 X78.284 Y114.15 E34.61126
G1 X78.058 Y113.439 E34.646
G1 X77.909 Y112.708 E34.68073
G1 X77.84 Y111.965 E34.71548
G1 X77.835 Y111.564 E34.73415
G1 X77.975 Y103.664 E35.10207
G1 X77.842 Y98.514 E35.34195
G1 X77.863 Y97.768 E35.37671
G1 X77.963 Y97.029 E35.41143
G1 X78.142 Y96.305 E35.44616
G1 X78.398 Y95.604 E35.48091
G1 X78.727 Y94.935 E35.51562
G1 X79.125 Y94.304 E35.55036
G1 X79.707 Y93.59 E35.59325
G1 X79.965 Y93.313 E35.61088
G1 X80.502 Y92.796 E35.64559
M205 X10 Y10
G0 X80.891 Y93.2
M205 X8 Y8
G1 X81.459 Y92.765 E35.6789
G1 X82.072 Y92.396 E35.71222
G1 X82.722 Y92.099 E35.7455
G1 X83.402 Y91.875 E35.77883
G1 X84.102 Y91.729 E35.81213
G1 X85.04 Y91.657 E35.85594
G1 X118.823 Y91.561 E37.42902
G1 X119.537 Y91.599 E37.46231
G1 X120.477 Y91.774 E37.50684
G1 X122.194 Y92.228 E37.58953
G1 X122.874 Y92.449 E37.62283
G1 X123.496 Y92.729 E37.65459
G1 X124.39 Y93.191 E37.70145
G1 X124.867 Y93.464 E37.72704
G1 X126.376 Y94.416 E37.81012
G1 X126.959 Y94.831 E37.84344
G1 X127.491 Y95.308 E37.87671
G1 X128.172 Y96.114 E37.92585
G1 X129.319 Y97.723 E38.01786
G1 X129.637 Y98.214 E38.0451
G1 X130.331 Y99.404 E38.10924
G1 X130.656 Y100.041 E38.14254
G1 X130.908 Y100.71 E38.17583
G1 X131.138 Y101.727 E38.22438
G1 X131.375 Y103.394 E38.30279
G1 X131.436 Y104.107 E38.33611
G1 X131.436 Y104.485 E38.35371
G1 X131.355 Y107.211 E38.4807
G1 X131.294 Y107.924 E38.51402
G1 X131.154 Y108.625 E38.54731
G1 X130.942 Y109.29 E38.57981
G1 X130.526 Y110.387 E38.63444
G1 X130.236 Y111.041 E38.66775
G1 X130.042 Y111.391 E38.68638
G1 X129.32 Y112.604 E38.75211
G1 X128.92 Y113.198 E38.78546
G1 X128.457 Y113.743 E38.81876
G1 X127.783 Y114.356 E38.86118
G1 X125.479 Y116.173 E38.99781
G1 X124.894 Y116.584 E39.0311
G1 X124.266 Y116.927 E39.06442
G1 X123.649 Y117.182 E39.09551
G1 X121.392 Y117.98 E39.20698
G1 X120.706 Y118.18 E39.24025
G1 X120.009 Y118.302 E39.2732
G1 X119.272 Y118.389 E39.30776
G1 X118.517 Y118.433 E39.34297
G1 X108.219 Y118.425 E39.82249
G1 X108.119 Y118.424 E39.82715
G1 X101.436 Y118.315 E40.13838
G1 X99.547 Y118.381 E40.22639
G1 X99.323 Y118.385 E40.23683
G1 X85.093 Y118.384 E40.89943
G1 X84.378 Y118.344 E40.93278
G1 X83.673 Y118.225 E40.96607
G1 X82.986 Y118.027 E40.99936
G1 X82.325 Y117.754 E41.03266
G1 X81.698 Y117.409 E41.06599
G1 X81.114 Y116.997 E41.09927
G1 X80.59 Y116.532 E41.13189
G1 X80.291 Y116.236 E41.15148
G1 X79.812 Y115.705 E41.18478
G1 X79.395 Y115.124 E41.21808
G1 X79.045 Y114.5 E41.25139
G1 X78.767 Y113.841 E41.2847
G1 X78.565 Y113.155 E41.318
G1 X78.44 Y112.451 E41.35129
G1 X78.395 Y111.574 E41.39218
G1 X78.535 Y103.66 E41.76075
G1 X78.402 Y98.499 E42.00115
G1 X78.424 Y97.785 E42.03441
G1 X78.525 Y97.076 E42.06776
