; G-Code generated by Simplify3D(R) Version 3.0.0
; דצמ 5, 2018 at 9:53:04 PM
; Settings Summary
;   processName,Process1
;   applyToModels,Shoe_F_R_4.b
;   profileName,AnyCubic i3 Mega (modified)
;   profileVersion,2018-10-25 23:45:52
;   baseProfile,Default
;   printMaterial,PLA
;   printQuality,Medium
;   printExtruders,
;   extruderName,Primary Extruder
;   extruderToolheadNumber,0
;   extruderDiameter,0.35
;   extruderAutoWidth,0
;   extruderWidth,0.4
;   extrusionMultiplier,0.9
;   extruderUseRetract,1
;   extruderRetractionDistance,1
;   extruderExtraRestartDistance,0
;   extruderRetractionZLift,0
;   extruderRetractionSpeed,1800
;   extruderUseCoasting,0
;   extruderCoastingDistance,0.2
;   extruderUseWipe,0
;   extruderWipeDistance,5
;   primaryExtruder,0
;   layerHeight,0.1
;   topSolidLayers,6
;   bottomSolidLayers,6
;   perimeterOutlines,2
;   printPerimetersInsideOut,1
;   startPointOption,2
;   startPointOriginX,0
;   startPointOriginY,0
;   startPointOriginZ,300
;   sequentialIslands,0
;   spiralVaseMode,0
;   firstLayerHeightPercentage,200
;   firstLayerWidthPercentage,100
;   firstLayerUnderspeed,0.5
;   useRaft,0
;   raftExtruder,0
;   raftLayers,3
;   raftOffset,3
;   raftSeparationDistance,0.14
;   raftInfill,85
;   disableRaftBaseLayers,0
;   useSkirt,1
;   skirtExtruder,0
;   skirtLayers,1
;   skirtOutlines,8
;   skirtOffset,5
;   usePrimePillar,0
;   primePillarExtruder,999
;   primePillarWidth,12
;   primePillarLocation,7
;   primePillarSpeedMultiplier,1
;   useOozeShield,0
;   oozeShieldExtruder,999
;   oozeShieldOffset,2
;   oozeShieldOutlines,1
;   oozeShieldSidewallShape,1
;   oozeShieldSidewallAngle,30
;   oozeShieldSpeedMultiplier,1
;   infillExtruder,0
;   internalInfillPattern,Triangular
;   externalInfillPattern,Rectilinear
;   infillPercentage,30
;   outlineOverlapPercentage,15
;   infillExtrusionWidthPercentage,100
;   minInfillLength,5
;   infillLayerInterval,1
;   infillAngles,0,60,-60
;   overlapInfillAngles,1
;   generateSupport,1
;   supportExtruder,0
;   supportInfillPercentage,30
;   supportExtraInflation,0
;   denseSupportLayers,0
;   denseSupportInfillPercentage,70
;   supportLayerInterval,1
;   supportHorizontalPartOffset,0.25
;   supportUpperSeparationLayers,1
;   supportLowerSeparationLayers,1
;   supportType,1
;   supportGridSpacing,1
;   maxOverhangAngle,20
;   supportAngles,90
;   temperatureName,Primary Extruder,Bed
;   temperatureNumber,0,0
;   temperatureSetpointCount,1,1
;   temperatureSetpointLayers,1,1
;   temperatureSetpointTemperatures,215,60
;   temperatureStabilizeAtStartup,1,1
;   temperatureHeatedBed,0,1
;   temperatureRelayBetweenLayers,0,0
;   temperatureRelayBetweenLoops,0,0
;   fanLayers,1,2
;   fanSpeeds,0,100
;   blipFanToFullPower,0
;   adjustSpeedForCooling,1
;   minSpeedLayerTime,15
;   minCoolingSpeedSlowdown,80
;   increaseFanForCooling,0
;   minFanLayerTime,45
;   maxCoolingFanSpeed,100
;   increaseFanForBridging,0
;   bridgingFanSpeed,100
;   use5D,1
;   relativeEdistances,0
;   allowEaxisZeroing,1
;   independentExtruderAxes,0
;   includeM10123,0
;   stickySupport,1
;   applyToolheadOffsets,0
;   gcodeXoffset,0
;   gcodeYoffset,0
;   gcodeZoffset,0
;   overrideMachineDefinition,1
;   machineTypeOverride,0
;   strokeXoverride,210
;   strokeYoverride,210
;   strokeZoverride,205
;   originOffsetXoverride,0
;   originOffsetYoverride,0
;   originOffsetZoverride,0
;   homeXdirOverride,-1
;   homeYdirOverride,-1
;   homeZdirOverride,-1
;   flipXoverride,1
;   flipYoverride,-1
;   flipZoverride,1
;   toolheadOffsets,0,0|0,0|0,0|0,0|0,0|0,0
;   overrideFirmwareConfiguration,1
;   firmwareTypeOverride,RepRap (Marlin/Repetier/Sprinter)
;   GPXconfigOverride,r2
;   baudRateOverride,115200
;   overridePrinterModels,0
;   printerModelsOverride
;   startingGcode,G28 ; home all axes
;   layerChangeGcode,
;   retractionGcode,
;   toolChangeGcode,
;   endingGcode,G1 X0 Y210,M104 S0 ; turn off extruder,M140 S0 ; turn off bed,M84 ; disable motors
;   createX3G,0
;   celebration,0
;   celebrationSong,Random Song
;   createMB5G,0
;   postProcessing,
;   defaultSpeed,3600
;   outlineUnderspeed,0.5
;   solidInfillUnderspeed,0.8
;   supportUnderspeed,0.8
;   rapidXYspeed,4800
;   rapidZspeed,1002
;   minBridgingArea,50
;   bridgingExtraInflation,0
;   bridgingExtrusionMultiplier,1
;   bridgingSpeedMultiplier,1
;   filamentDiameter,1.75
;   filamentPricePerKg,46
;   filamentDensity,1.25
;   useMinPrintHeight,0
;   minPrintHeight,0
;   useMaxPrintHeight,0
;   maxPrintHeight,0
;   useDiaphragm,0
;   diaphragmLayerInterval,20
;   robustSlicing,1
;   mergeAllIntoSolid,0
;   onlyRetractWhenCrossingOutline,1
;   retractBetweenLayers,1
;   useRetractionMinTravel,0
;   retractionMinTravel,3
;   retractWhileWiping,0
;   onlyWipeOutlines,1
;   avoidCrossingOutline,0
;   maxMovementDetourFactor,3
;   toolChangeRetractionDistance,0
;   toolChangeExtraRestartDistance,0
;   toolChangeRetractionSpeed,600
;   allowThinWallGapFill,1
;   thinWallAllowedOverlapPercentage,10
;   horizontalSizeCompensation,0
G90
M82
M106 S0
M140 S60
M190 S60
M104 S215 T0
M109 S215 T0
G28 ; home all axes
G92 E0
G1 E-1.0000 F1800
G1 Z0.200 F1002
; layer 1, Z = 0.2
T0
; tool H0.200 W0.400
; skirt
G1 X83.495 Y95.518 F4800
G1 E0.0000 F540
G92 E0
G1 X83.596 Y95.431 E0.0040 F2880
G1 X84.706 Y94.563 E0.0462
G1 X84.814 Y94.486 E0.0501
G1 X85.297 Y94.173 E0.0674
G1 X85.412 Y94.106 E0.0713
G1 X86.657 Y93.447 E0.1135
G1 X86.777 Y93.390 E0.1175
G1 X87.308 Y93.167 E0.1347
G1 X87.433 Y93.121 E0.1387
G1 X88.706 Y92.713 E0.1787
G1 X88.802 Y92.686 E0.1817
G1 X89.221 Y92.582 E0.1946
G1 X89.318 Y92.561 E0.1976
G1 X90.118 Y92.418 E0.2219
G1 X90.200 Y92.406 E0.2244
G1 X90.557 Y92.362 E0.2352
G1 X90.640 Y92.354 E0.2377
G1 X91.552 Y92.294 E0.2650
G1 X91.602 Y92.291 E0.2665
G1 X91.818 Y92.284 E0.2730
G1 X91.868 Y92.283 E0.2745
G1 X127.643 Y92.291 E1.3454
G1 X128.746 Y92.748 E1.3811
G1 X132.518 Y96.521 E1.5408
G1 X132.974 Y97.623 E1.5765
G1 X132.974 Y112.376 E2.0181
G1 X132.518 Y113.478 E2.0539
G1 X128.748 Y117.251 E2.2135
G1 X127.646 Y117.708 E2.2492
G1 X111.684 Y117.717 E2.7270
G1 X111.502 Y117.706 E2.7325
G1 X110.718 Y117.611 E2.7561
G1 X110.538 Y117.578 E2.7616
G1 X109.411 Y117.299 E2.7964
G1 X109.128 Y117.199 E2.8053
G1 X107.950 Y116.641 E2.8443
G1 X107.693 Y116.486 E2.8533
G1 X107.308 Y116.198 E2.8677
G1 X107.135 Y116.322 E2.8741
G1 X105.671 Y117.117 E2.9240
G1 X105.314 Y117.256 E2.9354
G1 X104.011 Y117.578 E2.9756
G1 X103.832 Y117.611 E2.9811
G1 X103.050 Y117.706 E3.0046
G1 X102.868 Y117.717 E3.0101
G1 X91.866 Y117.717 E3.3394
G1 X91.817 Y117.716 E3.3409
G1 X91.601 Y117.709 E3.3474
G1 X91.551 Y117.706 E3.3489
G1 X90.640 Y117.646 E3.3762
G1 X90.557 Y117.638 E3.3787
G1 X90.200 Y117.594 E3.3894
G1 X90.118 Y117.582 E3.3919
G1 X89.389 Y117.452 E3.4141
G1 X89.324 Y117.438 E3.4161
G1 X89.043 Y117.375 E3.4247
G1 X88.979 Y117.359 E3.4267
G1 X88.264 Y117.165 E3.4489
G1 X88.184 Y117.141 E3.4514
G1 X87.843 Y117.028 E3.4621
G1 X87.765 Y116.999 E3.4646
G1 X86.782 Y116.611 E3.4962
G1 X86.676 Y116.564 E3.4997
G1 X86.223 Y116.344 E3.5148
G1 X86.121 Y116.289 E3.5183
G1 X84.936 Y115.593 E3.5594
G1 X84.825 Y115.521 E3.5634
G1 X84.356 Y115.187 E3.5806
G1 X84.252 Y115.105 E3.5846
G1 X83.181 Y114.189 E3.6267
G1 X83.084 Y114.098 E3.6307
G1 X82.682 Y113.686 E3.6480
G1 X82.593 Y113.587 E3.6519
G1 X81.701 Y112.497 E3.6941
G1 X81.621 Y112.391 E3.6981
G1 X81.298 Y111.915 E3.7153
G1 X81.228 Y111.802 E3.7193
G1 X80.559 Y110.602 E3.7604
G1 X80.506 Y110.499 E3.7639
G1 X80.296 Y110.041 E3.7789
G1 X80.251 Y109.934 E3.7824
G1 X79.885 Y108.942 E3.8141
G1 X79.858 Y108.864 E3.8166
G1 X79.752 Y108.520 E3.8273
G1 X79.730 Y108.440 E3.8298
G1 X79.552 Y107.721 E3.8520
G1 X79.537 Y107.656 E3.8540
G1 X79.480 Y107.374 E3.8626
G1 X79.468 Y107.309 E3.8646
G1 X79.354 Y106.575 E3.8868
G1 X79.343 Y106.492 E3.8893
G1 X79.307 Y106.129 E3.9002
G1 X79.301 Y106.045 E3.9027
G1 X79.257 Y105.014 E3.9336
G1 X79.256 Y104.915 E3.9366
G1 X79.266 Y104.485 E3.9495
G1 X79.272 Y104.386 E3.9524
G1 X79.361 Y103.382 E3.9826
G1 X79.371 Y103.300 E3.9851
G1 X79.422 Y102.946 E3.9958
G1 X79.436 Y102.865 E3.9983
G1 X79.590 Y102.105 E4.0215
G1 X79.608 Y102.024 E4.0240
G1 X79.699 Y101.676 E4.0347
G1 X79.722 Y101.596 E4.0372
G1 X80.022 Y100.658 E4.0667
G1 X80.050 Y100.579 E4.0692
G1 X80.178 Y100.243 E4.0800
G1 X80.210 Y100.167 E4.0824
G1 X80.542 Y99.425 E4.1068
G1 X80.585 Y99.335 E4.1097
G1 X80.787 Y98.954 E4.1227
G1 X80.837 Y98.867 E4.1256
G1 X81.539 Y97.730 E4.1657
G1 X81.614 Y97.620 E4.1696
G1 X81.958 Y97.159 E4.1869
G1 X82.042 Y97.056 E4.1909
G1 X82.982 Y96.006 E4.2330
G1 X83.075 Y95.911 E4.2370
G1 X83.495 Y95.518 E4.2542
G1 X83.762 Y95.816 F4800
G92 E0
G1 X83.850 Y95.741 E0.0034 F2880
G1 X84.946 Y94.884 E0.0451
G1 X85.039 Y94.817 E0.0485
G1 X85.507 Y94.514 E0.0652
G1 X85.607 Y94.455 E0.0687
G1 X86.837 Y93.804 E0.1103
G1 X86.941 Y93.755 E0.1138
G1 X87.455 Y93.539 E0.1305
G1 X87.563 Y93.499 E0.1339
G1 X88.822 Y93.096 E0.1735
G1 X88.905 Y93.072 E0.1761
G1 X89.311 Y92.972 E0.1886
G1 X89.395 Y92.954 E0.1912
G1 X90.183 Y92.813 E0.2151
G1 X90.254 Y92.802 E0.2173
G1 X90.600 Y92.760 E0.2277
G1 X90.672 Y92.753 E0.2299
G1 X91.575 Y92.693 E0.2570
G1 X91.618 Y92.691 E0.2583
G1 X91.828 Y92.684 E0.2646
G1 X91.871 Y92.683 E0.2658
G1 X127.564 Y92.691 E1.3343
G1 X128.519 Y93.087 E1.3652
G1 X132.178 Y96.747 E1.5202
G1 X132.574 Y97.703 E1.5511
G1 X132.574 Y112.296 E1.9880
G1 X132.179 Y113.252 E2.0189
G1 X128.521 Y116.912 E2.1738
G1 X127.566 Y117.308 E2.2048
G1 X111.696 Y117.317 E2.6798
G1 X111.538 Y117.308 E2.6845
G1 X110.778 Y117.215 E2.7075
G1 X110.623 Y117.187 E2.7122
G1 X109.526 Y116.916 E2.7460
G1 X109.281 Y116.829 E2.7538
G1 X108.140 Y116.288 E2.7916
G1 X107.917 Y116.154 E2.7994
G1 X107.297 Y115.690 E2.8226
G1 X107.191 Y115.789 E2.8269
G1 X106.922 Y115.983 E2.8368
G1 X105.503 Y116.754 E2.8851
G1 X105.193 Y116.874 E2.8951
G1 X103.927 Y117.187 E2.9341
G1 X103.772 Y117.215 E2.9389
G1 X103.013 Y117.307 E2.9617
G1 X102.856 Y117.317 E2.9664
G1 X91.870 Y117.317 E3.2953
G1 X91.827 Y117.316 E3.2966
G1 X91.618 Y117.309 E3.3029
G1 X91.574 Y117.307 E3.3042
G1 X90.672 Y117.247 E3.3312
G1 X90.600 Y117.240 E3.3334
G1 X90.254 Y117.198 E3.3438
G1 X90.183 Y117.187 E3.3460
G1 X89.464 Y117.059 E3.3679
G1 X89.407 Y117.047 E3.3696
G1 X89.135 Y116.986 E3.3779
G1 X89.079 Y116.972 E3.3796
G1 X88.374 Y116.780 E3.4015
G1 X88.305 Y116.760 E3.4037
G1 X87.975 Y116.650 E3.4141
G1 X87.907 Y116.625 E3.4163
G1 X86.936 Y116.242 E3.4475
G1 X86.844 Y116.201 E3.4505
G1 X86.405 Y115.987 E3.4651
G1 X86.316 Y115.940 E3.4681
G1 X85.147 Y115.253 E3.5088
G1 X85.050 Y115.190 E3.5122
G1 X84.596 Y114.866 E3.5289
G1 X84.505 Y114.795 E3.5323
G1 X83.448 Y113.891 E3.5740
G1 X83.364 Y113.812 E3.5774
G1 X82.974 Y113.413 E3.5941
G1 X82.897 Y113.327 E3.5976
G1 X82.016 Y112.250 E3.6392
G1 X81.947 Y112.158 E3.6427
G1 X81.633 Y111.697 E3.6594
G1 X81.573 Y111.599 E3.6628
G1 X80.912 Y110.414 E3.7034
G1 X80.866 Y110.325 E3.7065
G1 X80.662 Y109.881 E3.7211
G1 X80.624 Y109.788 E3.7241
G1 X80.262 Y108.809 E3.7553
G1 X80.239 Y108.741 E3.7575
G1 X80.136 Y108.408 E3.7679
G1 X80.117 Y108.338 E3.7701
G1 X79.941 Y107.629 E3.7919
G1 X79.928 Y107.573 E3.7937
G1 X79.873 Y107.300 E3.8020
G1 X79.863 Y107.243 E3.8037
G1 X79.750 Y106.519 E3.8257
G1 X79.741 Y106.447 E3.8279
G1 X79.706 Y106.095 E3.8384
G1 X79.701 Y106.023 E3.8406
G1 X79.657 Y105.003 E3.8711
G1 X79.656 Y104.917 E3.8737
G1 X79.666 Y104.501 E3.8862
G1 X79.671 Y104.416 E3.8887
G1 X79.759 Y103.423 E3.9186
G1 X79.768 Y103.352 E3.9207
G1 X79.817 Y103.009 E3.9311
G1 X79.830 Y102.939 E3.9332
G1 X79.981 Y102.189 E3.9561
G1 X79.997 Y102.119 E3.9583
G1 X80.085 Y101.782 E3.9687
G1 X80.105 Y101.713 E3.9708
G1 X80.402 Y100.785 E4.0000
G1 X80.426 Y100.717 E4.0022
G1 X80.550 Y100.391 E4.0126
G1 X80.578 Y100.325 E4.0148
G1 X80.904 Y99.594 E4.0387
G1 X80.942 Y99.516 E4.0413
G1 X81.138 Y99.147 E4.0538
G1 X81.181 Y99.072 E4.0564
G1 X81.875 Y97.947 E4.0960
G1 X81.940 Y97.852 E4.0994
G1 X82.273 Y97.405 E4.1161
G1 X82.346 Y97.316 E4.1196
G1 X83.274 Y96.279 E4.1612
G1 X83.355 Y96.197 E4.1647
G1 X83.762 Y95.816 E4.1814
G1 X84.029 Y96.114 F4800
G92 E0
G1 X84.103 Y96.051 E0.0029 F2880
G1 X85.185 Y95.204 E0.0440
G1 X85.264 Y95.148 E0.0470
G1 X85.718 Y94.854 E0.0631
G1 X85.802 Y94.805 E0.0660
G1 X87.016 Y94.162 E0.1072
G1 X87.104 Y94.120 E0.1101
G1 X87.602 Y93.911 E0.1262
G1 X87.693 Y93.877 E0.1292
G1 X88.937 Y93.479 E0.1683
G1 X89.008 Y93.459 E0.1705
G1 X89.401 Y93.361 E0.1826
G1 X89.472 Y93.346 E0.1848
G1 X90.248 Y93.207 E0.2084
G1 X90.308 Y93.198 E0.2102
G1 X90.643 Y93.157 E0.2203
G1 X90.704 Y93.152 E0.2221
G1 X91.598 Y93.092 E0.2489
G1 X91.635 Y93.090 E0.2500
G1 X91.838 Y93.084 E0.2561
G1 X91.874 Y93.083 E0.2572
G1 X127.484 Y93.091 E1.3232
G1 X128.292 Y93.426 E1.3493
G1 X131.839 Y96.974 E1.4995
G1 X132.174 Y97.782 E1.5257
G1 X132.174 Y112.217 E1.9578
G1 X131.839 Y113.025 E1.9840
G1 X128.294 Y116.573 E2.1341
G1 X127.486 Y116.908 E2.1603
G1 X111.708 Y116.917 E2.6326
G1 X111.574 Y116.909 E2.6366
G1 X110.838 Y116.820 E2.6588
G1 X110.707 Y116.796 E2.6628
G1 X109.641 Y116.532 E2.6956
G1 X109.434 Y116.458 E2.7022
G1 X108.329 Y115.935 E2.7388
G1 X108.140 Y115.822 E2.7454
G1 X107.268 Y115.169 E2.7780
G1 X106.937 Y115.479 E2.7916
G1 X106.709 Y115.644 E2.8000
G1 X105.335 Y116.390 E2.8468
G1 X105.072 Y116.491 E2.8553
G1 X103.842 Y116.795 E2.8932
G1 X103.711 Y116.819 E2.8972
G1 X102.977 Y116.909 E2.9193
G1 X102.844 Y116.917 E2.9233
G1 X91.873 Y116.917 E3.2517
G1 X91.836 Y116.916 E3.2528
G1 X91.634 Y116.910 E3.2589
G1 X91.598 Y116.908 E3.2600
G1 X90.704 Y116.848 E3.2868
G1 X90.643 Y116.843 E3.2886
G1 X90.308 Y116.802 E3.2987
G1 X90.248 Y116.793 E3.3005
G1 X89.538 Y116.666 E3.3221
G1 X89.491 Y116.656 E3.3236
G1 X89.227 Y116.597 E3.3316
G1 X89.180 Y116.585 E3.3331
G1 X88.484 Y116.396 E3.3547
G1 X88.426 Y116.378 E3.3565
G1 X88.106 Y116.272 E3.3666
G1 X88.049 Y116.251 E3.3684
G1 X87.090 Y115.873 E3.3993
G1 X87.012 Y115.838 E3.4018
G1 X86.587 Y115.631 E3.4160
G1 X86.512 Y115.591 E3.4185
G1 X85.357 Y114.912 E3.4586
G1 X85.275 Y114.859 E3.4615
G1 X84.835 Y114.546 E3.4777
G1 X84.759 Y114.486 E3.4806
G1 X83.715 Y113.592 E3.5218
G1 X83.644 Y113.526 E3.5247
G1 X83.266 Y113.140 E3.5408
G1 X83.201 Y113.067 E3.5438
G1 X82.331 Y112.004 E3.5849
G1 X82.273 Y111.926 E3.5878
G1 X81.969 Y111.479 E3.6040
G1 X81.918 Y111.397 E3.6069
G1 X81.265 Y110.226 E3.6470
G1 X81.226 Y110.150 E3.6495
G1 X81.029 Y109.721 E3.6637
G1 X80.996 Y109.642 E3.6662
G1 X80.639 Y108.675 E3.6971
G1 X80.619 Y108.618 E3.6989
G1 X80.520 Y108.295 E3.7090
G1 X80.504 Y108.237 E3.7108
G1 X80.330 Y107.537 E3.7324
G1 X80.319 Y107.489 E3.7339
G1 X80.266 Y107.225 E3.7419
G1 X80.257 Y107.177 E3.7434
G1 X80.146 Y106.463 E3.7651
G1 X80.138 Y106.401 E3.7669
G1 X80.104 Y106.061 E3.7771
G1 X80.100 Y106.000 E3.7790
G1 X80.057 Y104.993 E3.8091
G1 X80.056 Y104.920 E3.8113
G1 X80.065 Y104.517 E3.8234
G1 X80.070 Y104.445 E3.8256
G1 X80.157 Y103.464 E3.8550
G1 X80.164 Y103.404 E3.8568
G1 X80.212 Y103.072 E3.8669
G1 X80.223 Y103.013 E3.8687
G1 X80.372 Y102.274 E3.8912
G1 X80.385 Y102.215 E3.8931
G1 X80.470 Y101.888 E3.9032
G1 X80.487 Y101.830 E3.9050
G1 X80.781 Y100.912 E3.9338
G1 X80.801 Y100.855 E3.9356
G1 X80.922 Y100.539 E3.9458
G1 X80.945 Y100.483 E3.9476
G1 X81.267 Y99.763 E3.9712
G1 X81.299 Y99.698 E3.9734
G1 X81.488 Y99.340 E3.9855
G1 X81.524 Y99.276 E3.9877
G1 X82.211 Y98.165 E4.0268
G1 X82.265 Y98.084 E4.0297
G1 X82.589 Y97.652 E4.0459
G1 X82.650 Y97.576 E4.0488
G1 X83.567 Y96.553 E4.0899
G1 X83.635 Y96.483 E4.0928
G1 X84.029 Y96.114 E4.1090
G1 X84.296 Y96.412 F4800
G92 E0
G1 X84.356 Y96.360 E0.0024 F2880
G1 X85.425 Y95.525 E0.0430
G1 X85.490 Y95.479 E0.0454
G1 X85.928 Y95.194 E0.0610
G1 X85.997 Y95.154 E0.0634
G1 X87.195 Y94.520 E0.1040
G1 X87.267 Y94.486 E0.1064
G1 X87.749 Y94.283 E0.1220
G1 X87.824 Y94.255 E0.1244
G1 X89.053 Y93.862 E0.1630
G1 X89.110 Y93.846 E0.1648
G1 X89.491 Y93.751 E0.1765
G1 X89.549 Y93.739 E0.1783
G1 X90.313 Y93.602 E0.2016
G1 X90.362 Y93.595 E0.2031
G1 X90.686 Y93.555 E0.2128
G1 X90.736 Y93.550 E0.2143
G1 X91.621 Y93.492 E0.2409
G1 X91.651 Y93.490 E0.2418
